alanthayil/dense_models/dense_model_5/data/lara10/data/900_joint_angles.csv
joint_angle_1,joint_angle_2,joint_angle_3,joint_angle_4,joint_angle_5,joint_angle_6
2.50868924415804,1.79868724488002,-1.61169330571632,1.18539462550749,-1.53359583627245,0.947488834660608
2.33198661289815,1.70268784748434,-1.62149157348555,1.37549088951059,-1.49559668136295,0.826889767688862
2.71139244931932,1.67307488281777,-1.24508279972737,0.98498431882099,-1.71918241963572,1.11328988575937
2.94099214107875,1.82809319904503,-1.10848271914581,0.819584698978382,-1.95408638754156,1.33188916123733
2.44439078012227,1.96029326537085,-1.50989194126739,1.18829008045022,-1.5868892250953,1.28118660643461
2.33198724533772,1.67178795183288,-1.20708114764539,1.28758815109666,-1.59579233026449,1.24248885221745
2.9104889354163,1.26798839942402,-1.25159497594219,0.870182704670595,-1.57177140827404,0.632785133731731
2.70108595641704,0.862988010970873,-1.22378412809779,1.17049430589423,-1.4691921162895,0.22798933501115
2.39718678115247,0.436887459697946,-0.972385770210282,1.5216858690123,-1.63058685117466,-0.001111191726044
2.3045881019207,0.357486325868552,-1.05829733826581,1.62499427313032,-1.69778063123901,-0.147710708054908
2.36449026416305,0.235285859558833,-1.3541962814087,1.63049513172088,-1.69658456279266,-0.509011395649618
2.63749157244813,0.321189930130516,-1.56678666347498,1.55258413408204,-1.42868307721485,-0.617812237420053
2.93049147182115,0.316185981372352,-1.84859582242343,1.65429379227377,-1.13398635333543,-0.895011039360935
2.77688799428575,0.827192251875321,-2.01219542125975,1.49328527538725,-1.20179252507448,-0.51400821603591
2.90399198280815,1.33819533264319,-2.03369174191553,1.13659072477728,-1.14768931858303,0.061188784004174
2.04658636651387,1.34709350974017,-1.79008428766718,1.78168839786929,-1.61887886184092,0.2305905033038
1.65368645651889,1.39469012134783,-2.0050937690182,2.16138966090368,-1.85738033241208,0.19288512154764
1.65709314908647,1.90399590397929,-2.4233936927608,2.20659170724039,-1.71949217856,0.374588645857426
0.981386974296218,1.79328471317568,-1.10588410666442,2.68879500274699,-0.703385108318736,1.1582900305274
0.849586719081617,0.813687858732613,-0.593582809711625,3.06469437645646,-1.48008617695714,1.74989308550789
1.93059106162316,-0.227315415436679,-0.347385277112866,1.99508426357015,-1.9729956637403,1.24898538563006
2.04509282451681,-0.844116331508183,-0.452103442304106,1.79678535786088,-2.16239365293991,1.28829397798549
1.89298647093431,-0.939803798730025,-0.240086617226531,1.93589401424381,-2.2458950547267,1.46009243154092
2.17939314619977,-1.48521152728633,-0.22978623149136,1.7362842414708,-2.18268263250427,2.23589151342097
1.61478667135218,-0.97290901068546,0.607614566606559,2.41709346037223,-1.91417281726305,1.57868466195858
1.16408759853123,-0.459409213856749,0.518608081658883,2.78649243607529,-1.6331935882057,1.14418717155358
1.18409322474099,-0.779822152677574,0.319705479974024,2.7684847265649,-2.06188622062488,1.02258659658538
0.889287674971614,-1.33780904831869,0.71541491429782,3.04269411576711,-2.16139388598763,1.2061923390029
1.07069184854871,-1.55981711938878,0.864914834307909,2.87638468077637,-2.17909034759168,1.1258880410101
0.866485827545719,-1.44390971209444,1.32511427393082,3.0712925767409,-1.67198447638803,1.24428999181049
0.860887545090346,-1.0677105739173,1.19090656597506,3.07169102259796,-1.488589225282,1.20398697295223
0.952489053269672,-0.90830863788401,1.41972094910733,2.96468559404509,-1.08839233413488,0.671688041356002
0.811988385086063,-1.37461682225819,1.42901480822802,3.1202926878174,-1.49028707313839,0.634286146362262
1.30509025474424,-1.56002338529189,1.92491640110337,2.63598742281261,-1.175289906366,0.84568997327853
1.22148778616451,-1.68011646121942,2.16231687862849,2.67419322424999,-1.02829998170891,0.913988008266415
1.98629149453539,-1.80082440504255,1.37560780999004,2.17138540083874,-1.69888800764051,0.328288105632799
2.25079004448526,-1.87671248865966,1.03060403604163,1.9933852063476,-1.75948656312468,-0.071007751889446
2.44319066690855,-1.63260926941391,0.586502598934078,1.86948879310291,-1.72488904121954,-0.314114108133746
2.21868646591132,-1.21400955143838,0.750614751880502,1.94129367381521,-1.72629336941612,0.189793011467184
2.0600876492315,-0.997509919516309,0.941516359807042,2.02709456654526,-1.62908951494128,0.532888553360313
2.17979255551358,-0.889108683926263,1.15851749845412,1.84508815972267,-1.54209168236241,0.830086452871092
2.26668962469184,-1.23771859115092,1.38511306300187,1.80968666834442,-1.5282887803983,0.755787842027465
2.3002882504287,-1.25281210167039,1.51291594456628,1.74898997199983,-1.50839670583804,0.874489149932055
2.59529129760375,-1.39241731844463,1.78191687068181,1.43559171027244,-1.57158440550127,1.03358968673742
2.65758887431223,-1.71481818520529,2.01581464669078,1.37608437142775,-1.51818797808873,0.986588011417141
1.98408844566382,-1.86452388877036,2.15761558582551,2.00459257102441,-1.31479336672477,0.973886167941828
1.78608755624078,-1.76520880768212,2.06530991224878,2.19518980828645,-1.28259626090172,0.936689128630073
1.30978759010504,-1.65000778578107,1.73570717839699,2.69088816403706,-1.42108810027625,0.706585510849073
1.57669117703203,-1.18091085245951,1.12070833613971,2.47268556814789,-1.62208239709875,0.566784271059281
1.71338835838871,-1.01880816005237,0.812006491850193,2.35059103043343,-1.74237974996389,0.442490326120238
1.80369228383189,-1.14261867656702,0.596804663104022,2.26478477530495,-1.92408876386554,0.206986634407607
1.60818695321621,-1.01191028108185,0.213104811743126,2.34769106148839,-2.1674854864508,0.086788889004405
2.22989181221438,-0.43280829117568,0.622918855500495,1.75898541430367,-1.63787139418793,0.70299327193487
1.595687552789,-0.846116887416998,1.27451869236052,2.33989410832319,-1.30388939692003,0.875190443485356
1.45158653584804,-0.833110349439224,1.06180779441721,2.52868894450846,-1.43457612701737,0.692489242670829
1.30878612720616,0.157691971287783,0.139908665552331,2.57199293003499,-1.44019650602298,0.636184273299315
1.62949004372905,-0.233615855578695,-0.233594447711822,2.3098836913783,-1.99128775796198,0.195186966519953
1.78438963271768,0.473293706664032,-0.789492667006405,2.07868380485568,-1.825187167844,0.235392163444059
2.07479092565252,0.683593019925675,-0.953091549962961,1.76268872574804,-1.70000140314195,0.258589755564675
1.47078721158296,0.174985122670447,-1.11709636063077,2.22429341443339,-2.33658615419444,0.491492359843306
1.79659204907145,-0.029615568215792,-1.59108531812718,1.58268992099941,-2.30118231244924,0.293685917918145
1.71478608569029,0.564792085489439,-2.31149536824822,1.54298253016085,-2.30259092472583,0.22448567842295
2.39739031011789,-0.467316039906539,-0.392587413065563,1.66259220327076,-1.75869454542762,0.346592969047781
2.53519177219562,-0.489306006537486,-0.222987841902096,1.55938685782586,-1.66069544688724,0.474088568830124
2.75049145294066,0.009190318210214,-0.596393894432715,1.26758602720029,-1.51159033280131,0.581190266672021
2.67218982307091,0.218290334707495,-1.03029528439125,1.35518781819165,-1.49688919984583,0.987988161672625
3.10779241120545,0.414990891631799,-1.66899673222566,1.3251850396235,-0.964385324348282,0.681187528736509
3.10588759700756,1.0869851056091,-0.829583320597578,0.696985362160373,-1.78240262366187,0.754995397032676
2.83489062835423,0.935276812387635,-0.152881624233873,1.01088863915343,-2.04128791478376,1.26749339288684
2.32398763477326,1.33768730162878,-0.384992111685307,1.29329373446377,-1.77398124846291,1.73519201702731
2.08228863527291,1.15338729945747,-0.469892479733027,1.50939348393603,-1.57279135382264,1.36418513420484
2.70279182224701,0.705887709104451,-0.528292450337644,1.10258513082666,-1.76599457686323,1.87288918168116
2.5969855317324,0.973703831032771,0.289119435444472,1.28719476267235,-2.06879518473431,1.94809822421748
2.3984860314475,1.8821809937599,-0.194391894057997,1.28288832277977,-2.00958338662726,2.78339055749906
1.73698651496965,0.839878460220172,1.12692277382705,1.22848637512697,-1.42548398998582,3.12349117886944
2.20769119905807,0.504088563082566,1.57531580079038,1.45949566119323,-1.78999070034265,3.01488528739236
1.92828746071421,-0.222312851623515,1.839818177904,1.45238656712455,-1.31628626823599,2.39638356870156
2.11208929141235,-0.394713318473154,1.60830768990727,1.58839150469716,-1.44819517316293,1.85518464477
2.41969098650486,0.04329379893536,1.216408808506,1.46738833559699,-1.82059205589481,1.8810930671042
2.83509207315429,0.1834981499809,1.34721650138013,1.45118537125764,-2.24079009881499,2.17459249966112
2.66308717948647,-0.342814360901338,2.1777131047789,1.54219503272979,-2.02668503804892,2.58398941245416
2.92869122804722,-1.05361657467003,2.33931683499358,1.2500850468054,-2.10039435747091,1.89358556409177
1.7021873279235,-1.85191591786072,0.678908006459181,2.22669311355223,-2.31469571132795,2.37129425877696
1.14578727540863,-1.57630904944541,1.2171141883326,2.86379393022902,-1.89938236438132,2.41039452051926
0.938487107440103,-1.38440969238947,1.08980684907219,3.01798711864757,-1.86769064337965,1.82398618292361
0.89469087195618,-1.05781039378219,0.918008647014155,3.05189290439456,-1.76939042350346,1.79458624727859
1.04369243588908,-0.41900963604654,0.439005741823021,2.9212858461257,-1.70917943053678,2.35169215629524
1.5036919246638,-0.422412995657645,1.62141905923969,1.87648977373175,-0.853690117193449,1.73448794381412
1.22698817016325,-0.82191440877326,2.22082071687036,1.65458645911341,-0.470490329229129,2.14709177828476
0.274887597006074,-0.823513262500824,2.47711728564929,2.00808708650266,0.599205138722673,1.92248721138777
0.171387045355831,-0.483807539080881,2.29220885129048,2.07168713920998,0.793402814202332,1.79568778688151
-0.165312377881638,-0.305008089820847,1.87690831353234,1.68488372964851,1.09130784143821,2.20019099810855
-0.276211344112438,-0.272209590873512,1.87811763685245,1.69558613618437,1.21909027466738,2.17868478547556
-0.446408926186785,-0.464313226611837,1.91142073254377,1.62618933745165,1.34580176565442,2.34989073728307
-0.606513436806478,-0.304207800401989,1.75190861048995,1.63549282254004,1.53820394314068,2.3490843458578
-0.836213503794707,-0.252109679733773,1.72510498399641,1.6611922016131,1.77479650977626,2.34138851677779
-0.859413881334417,-0.287912988900786,1.54660880107283,1.66589363386549,1.77121623473196,2.52318851163302
-0.708307378951371,-0.301414769785788,1.35161071698597,1.58738444150046,1.62141935132625,2.69049003544453
-0.556811667464123,-0.339711933400373,1.51331677408856,1.5473919273696,1.47691981633473,2.58698785974159
-0.202808684966723,-0.585514677927312,1.52391861865109,1.23468802842316,1.15881607175056,2.87679253714328
-0.052908886137955,-0.467009608893314,1.70031680493603,1.37179172877143,0.956817686835011,2.59788867623708
0.209489794049652,-0.593314899612385,2.02902049568876,1.54938757902156,0.633421242479447,2.36028624698146
-0.033111696500046,-0.531308530652271,2.18151407580279,1.77029134147469,0.92160541726952,2.71368864860789
-0.333011441498136,-1.04581528736706,2.55071800759256,1.76378812085237,1.16260505446869,2.26988904383615
-0.618013422638113,-1.01251036693805,2.25110928487269,1.62888783884685,1.4109009983933,2.59729161840722
-0.965912153092225,-0.690009995740561,2.36832189121521,1.69289415885906,1.8468076945572,2.22958478470483
-1.10091189731074,-0.473410336051141,2.51332011453789,1.56259100998396,2.01780570176727,1.90218970945342
-0.607707889522514,0.065892895897725,2.53821709347117,1.7544931583936,1.76541852352757,1.35458977059322
-0.490010873497516,-0.061912763306215,2.25960892993925,1.82059372141079,1.58581345525699,1.68869066076458
-0.209608555578423,-0.299314181264497,2.54402001567336,2.05978955442503,1.36031864740581,1.58118379283423
0.391090873617831,-0.402414189920059,2.4586073747528,2.53498875728568,0.81961893571128,1.34088944748222
-0.224112969511975,0.161794195915502,1.86410738950605,1.90668862933956,1.35161026159801,1.77579429235914
-0.180510195669327,0.43019430680468,1.5062093734114,1.88458434333673,1.3370161963467,1.8533926553073
-0.366112012656715,0.650891761203716,1.43320877817502,1.83498651605974,1.5932034898494,1.77718753560878
-0.136806925225974,0.823403521835789,1.19441078194879,1.96159050524471,1.40941969677459,1.78739225260379
-0.420511229319753,0.947001294639045,1.23801923980105,1.82848721094163,1.71910941524278,1.71758574441309
-0.478713534013346,0.718787786934921,1.09030848548351,1.74478747704918,1.64951478298714,2.03819114559236
-0.952712714074018,0.763184455252886,0.709909222301055,1.73878474779432,2.03571124628204,2.39488789546076
-1.1124098578846,0.991380597789946,0.77382091748272,1.64869004360943,2.22140533519225,2.16078670234019
-1.04220677066903,0.719287325809659,0.967222395653485,1.65999107139338,2.13161669608946,2.19959278198196
-0.784610404886482,1.13928508438341,0.515708094091343,1.74939311098211,1.95141294925987,2.25099228830962
-1.38191320416619,1.48341246278082,0.224606064033421,1.77839373683059,2.45371042785285,1.75198564123557
-0.397708741052153,1.37078689398172,0.9880226135655,1.88279331854848,1.82060131558109,1.59978422821634
-0.148710440404904,0.756387846628873,1.78421785864827,2.08589014324325,1.63731310388028,1.35728755683376
-0.097407802060564,0.839094937054361,2.01241563139239,2.15538733537908,1.79360727856336,1.1141844924829
0.029489234153373,0.380587315120409,1.9801079564783,2.23038972575625,1.36411325584194,1.41378819852202
-0.556212135212831,0.360787466220339,2.18021878439434,1.75668507312879,1.76960386427295,1.39918413078593
-0.825211744555163,0.733994486261213,2.28361549340589,1.4169915901171,1.89170969703398,1.57669202071084
-1.0604135864615,0.143487760318913,1.77020846128596,1.54879352819132,2.06951665724722,1.95799387755061
-1.52250990511407,0.550597568645474,1.80111771048648,1.00808778936549,2.33570507157186,1.42348894140906
0.054988000247907,0.808393526246449,2.50851900713361,2.28019366030121,2.04861099043933,0.760485345963992
-0.045712856589174,0.779587257271901,2.57031478607103,2.16979163571618,2.01932028529407,1.32388849133484
-0.310613111809083,-0.16121422237244,2.25970539730241,1.88858452245723,1.45971468524976,-0.144713464106279
0.180492527415736,-1.19801814778078,1.79160766804691,0.725485550394036,1.11359285816236,0.217991269282877
0.545791529707464,-1.50481705541442,2.15001723504075,0.374588560675435,0.904719506219397,0.433290345392661
-0.572614163670269,-1.97831383649962,2.60461960783279,1.51818985324647,1.31970648149902,0.762090399059206
0.906192250435164,-1.60261076694052,1.77230856051625,-0.047709063163851,1.32802298550799,1.93498929534374
0.628487649280006,-1.95141837193472,2.02991668628678,0.19309468925156,1.36400775500909,1.96909362767184
0.691489572762513,-1.55660985303011,2.23682183890616,0.211593247955019,0.786319779799284,1.83218621953035
0.47248523927071,-1.54290939859846,1.09100386526992,0.32509407163679,1.96811557686599,0.781586181192136
0.06179024504534,-1.25980856539308,1.00950747595844,0.667591569325991,1.79391381256602,0.732585964326449
0.371791126020612,-1.2659209022789,1.1386135478869,0.387691230459887,1.72962047903462,-0.016313094901899
0.926689752439263,-1.1474088284233,0.953706162809768,-0.077314623618693,1.82011314566971,-0.085014207240114
0.980892704701219,-1.66991946250219,0.792501903499682,-0.147816936730297,2.36360497424814,-0.06950640494197
1.22579199287907,-1.67402087288469,0.716800482069012,-0.393212574894163,2.38192572255541,0.358993427122583
1.49818791063721,-1.92041587673249,0.918413486510995,-0.643816858059216,2.29520183083755,0.159788655016001
1.23988589573291,-1.50271130015168,1.29161491308269,-0.314705781124697,1.75781693267953,0.552789086135709
0.920087919137835,-1.27070955625638,0.975706273899844,-0.053505842538824,1.8848068707316,0.575392961072116
1.31449181534607,-1.01910956698693,0.910406514542759,-0.383915721550804,1.71741567622789,1.16119006678719
1.11298767679274,-1.19871647855287,1.04341435921909,-0.208313600891914,1.73910695945976,1.1908877719301
0.425587235622345,-1.23592393906723,1.00790570939843,0.355393699299807,1.77282257495905,1.95508876730613
1.30779262653104,-0.999710525305733,1.11671750648377,-0.41921520068463,1.47970638954187,2.52698772817452
2.36459168678072,-1.2549117897065,0.439200737498143,-1.29461329185665,1.75452836343493,3.00439179840005
2.37709206693716,-1.28001628846623,0.239502101103481,-1.29931752296252,1.8026061622651,2.80818742130721
2.62378965123347,-1.04860478086098,0.357015267918934,-1.5227148557572,1.58371893757636,3.06858887504367
2.206588388692,-0.304508563318217,-0.321593983565978,-1.34380630617228,1.82040695813675,3.08919191107139
2.06958835685574,-0.109809471544794,-0.752993785723115,-1.29900833720848,1.94360874702688,2.89348632599653
2.11549382162787,0.253491158778262,-0.936393393011616,-1.35871478464195,1.82851650350274,3.02378736034398
1.80098791153846,0.340689985579509,-1.2808943855406,-1.17680891822145,2.09400864518609,2.88498835919493
1.84719323705926,0.060584950717999,-1.3903970028298,-1.37621018973895,2.20530618273745,3.12198445179024
1.48248708968642,0.254891882641453,-1.11678604410713,-0.870405477367572,2.26621536135475,3.09298631095195
1.81369133633634,0.678793015061688,-1.70289659035864,-1.21761687455251,2.05792032742898,2.83488797559611
2.22689239256097,0.719494055026802,-1.48788544465243,-1.47490954854285,1.68782079667094,2.96768985857178
2.10728653312389,0.459986235162179,-1.91919625792438,-1.44580646615388,1.92450310990025,2.38758756680609
1.98508990657548,0.536491816306517,-2.11009459004359,-1.45301223547924,2.04040971694394,2.31538796277217
2.03618890192637,0.531786848267464,-2.28209370807512,-1.49771031375388,2.00742162778296,2.15919029897666
1.73728804111534,0.6059915500446,-2.42949212386609,-1.57551370188937,2.27720074958874,2.11768331052398
1.76968949597373,0.229386736866899,-2.27858700207753,-1.75701600258615,2.26419968260506,1.82718853140507
1.75108785193211,0.139685552271126,-2.00288637183208,-1.66181188797715,2.31240355250632,2.00049147187138
2.08789052740927,-0.168115286854192,-1.84698576459524,-1.62410761972801,2.06391469618583,1.86498661404232
2.14408872589128,-0.137908323127928,-1.57528460023503,-1.51900730828481,2.01121637461106,2.1386917292683
2.09558612736318,0.11249012036808,-1.54338549294622,-1.44900956476521,1.99202001416356,2.3926908162239
2.26049221516845,-0.433416047575216,-1.44808674493072,-1.52931673085629,1.96449296146448,1.99108427124784
2.45209056090004,-0.649422128158357,-1.10058449555617,-1.45430925109777,1.8228215219816,2.10839190856302
2.57508943606832,-0.848116352181756,-1.18749065378649,-1.40510890520302,1.7861154444547,1.85968758422964
2.69168947088741,-1.0876123897698,-1.09138589761974,-1.3211134772342,1.76391659340783,1.7379857142853
2.29108707998566,-0.957097352038982,-1.0082856218115,-1.5055162189139,2.02200162050038,1.9508925479118
2.184786670435,-0.867210770079523,-1.28359548837824,-1.62130966563877,2.089508820602,1.7657902971723
2.32879094956603,-0.764309685117871,-1.52239882097937,-1.57580765527475,1.97251909292249,1.63908936868564
2.16048825254905,-0.674909090056241,-2.0113950196986,-1.80121294940715,2.0008059208586,1.25548762446468
1.92308797267601,-0.381309524020025,-2.13669282498541,-1.93331379969856,2.10700549056629,1.37219306506711
1.62128710219436,-0.333108734262897,-1.96148589116478,-2.08321580544375,2.34000334045321,1.48228855648872
1.31889048917736,-0.753021243045408,-1.72948603492481,-2.52411719128549,2.3697091316118,1.7815928249396
1.07488778943664,-0.506908862080219,-2.08609359625167,-2.81711550425982,2.3132154316449,1.59788899615904
2.20249211195973,-0.503008940943325,-0.901283833082078,-1.42140804482399,1.98639967161631,2.42809140073278
1.44528697497137,-0.233309190063104,-0.73598377113157,-0.781809599601648,2.38520668830799,1.86508768221377
1.8047917490396,-0.206109314815381,-0.988091007645052,-1.19841665547454,2.26290375048973,1.46058509377485
1.11868659861609,0.116890397140133,-0.780885228870849,-0.328308477944191,2.32682393878489,0.310487835641385
0.789087457961228,-0.237015812679662,-0.288786411609363,0.070087311520312,2.2177189022268,0.535189914483017
0.846187834293018,-0.54741789180765,0.351413220275203,-0.012814881494109,1.90331436317517,-0.146413458140734
0.75188610105049,-0.011709137009508,-0.257493156185032,0.054893405122661,2.00830315209085,-0.795416838099083
0.261286531632822,0.413592307172367,-0.299491585243799,0.594292670587002,1.66071472864909,-0.869212983457047
0.228186807765797,0.943603102311983,-0.132476992667066,0.956194677748689,1.09241540495694,-1.31611437016704
0.306490663154325,1.45268858767181,-0.537190905535183,1.08519323493154,0.890818560040608,-1.37861400313356
-0.158111030201021,0.796787696969948,-0.678191716908291,1.07958656769518,1.61121843295678,-2.08261528514575
-0.640911892596236,0.849096966146687,-0.954793606922338,1.56149194504365,1.63021813014068,-2.47321092874902
-0.627707265511994,0.800586554210555,-0.811885715362917,1.55668638708292,1.63720361602889,-2.57261041464043
-0.726013969597129,0.487587490532301,-0.597185137277631,1.59559301138225,1.66860584051489,-2.51000927046772
-1.07951205371059,0.896598172039819,-0.686192465522126,2.02789555959457,1.70962059371782,-2.75341407834713
-1.27861046323358,0.821188818624658,-0.820694818026269,2.18538755550589,1.62941753742648,-2.58021014371118
-1.42811235169629,0.788986999679397,-0.960793261171724,2.29489381091369,1.51702409111126,-2.45671092392458
-1.23570854402496,0.949493634191654,-1.10959493402812,2.13058829978977,1.52431167180243,-2.4297109956107
-1.12990818186745,0.957694334967432,-1.12879181654186,2.03019037539364,1.53240408654603,-2.41081089654163
-0.997711534461559,1.15009552846901,-1.13969050607521,1.95489161777814,1.58460288952467,-2.55091206316492
-1.32131216784862,1.12828530501041,-0.959685417725892,2.264693861175,1.68930899841381,-2.67080972173248
-1.69341304429131,1.08998792619264,-0.95608455663207,2.58308695173409,1.70081032048939,-2.61811189228958
-1.69891259975028,1.14059730796796,-1.12799314017827,2.58309127194017,1.59201867707015,-2.5496113333794
-1.76730956734138,0.912588788731402,-1.04048752660435,2.61909308732845,1.50291908133231,-2.50810655184315
-1.94860914200128,1.31329543258131,-1.59279478938529,2.76629352955731,1.28551393946204,-2.41100997377767
-1.85790765932617,1.43659455538428,-1.63398741931346,2.69808583514326,1.35120253910078,-2.41431402190902
-1.6308085674946,1.32838698490306,-1.77979513380808,2.41408894912958,1.18191777160998,-2.20470942104556
-1.60360885047698,1.41379417316254,-1.80109216615538,2.41109063438193,1.2250087315601,-2.23681065065544
-1.41441057298901,1.60899639235968,-1.6887854892444,2.32598564268323,1.44780221367719,-2.42401155302118
-1.40020840314898,1.52558764152143,-1.59738708868834,2.31609141762369,1.46820344147493,-2.44061120397811
-1.48261167005622,1.65069490456756,-1.49238531867987,2.42289287422131,1.6158048172558,-2.58440585452269
-1.43890999628162,1.63578074760209,-1.42938584347494,2.38988731201548,1.64870539839759,-2.6230098529413
-1.46811431078371,1.51228813703436,-1.37048642762235,2.40729315202488,1.62511525418646,-2.59200987593868
-1.30581060199012,1.69119660469587,-1.51329166874242,2.27498474102155,1.60271716584638,-2.61261439661926
-1.34290759907368,1.86459552789199,-1.60399082181777,2.31469399749951,1.63360610151511,-2.64821010802421
-1.65330996231045,1.89716339240502,-1.29838213470668,2.55759329530016,1.94890928263395,-2.75801006272828
-1.86410944072755,1.82408795520854,-1.53489121447142,2.74329154318494,1.73622101913617,-2.56250594573555
-1.8172068507529,1.8481027041937,-1.64019198425319,2.70338765089129,1.65552066392321,-2.53800952027569
-2.05240936912269,1.86578529428904,-1.92969414290258,2.8804925060798,1.4030237854939,-2.42121020770325
-1.81850597756602,1.57778330276412,-0.99118466198277,2.68308444786547,2.02420510078082,-2.719810854102
-1.85091296377939,1.55198717223064,-1.28459009029744,2.73049362387169,1.75791758234364,-2.59250915965478
0.107792554771411,1.59649443038046,-1.16318233624686,0.993886101212147,1.20120690867912,-2.8253148380354
0.173692384185865,1.50298825710167,-1.58749308887019,0.73068640282598,1.56931032611898,-2.42740711685507
0.438388822924077,1.55299719583142,-1.28048244307152,0.488588920173616,1.2348218488242,-2.5877153162143
0.716889232075523,1.17208764177821,-1.25128443499174,0.084986380587689,1.65671073579869,-2.53430634326045
0.737192875989246,1.22099333361779,-1.54869352387138,0.059386529119147,1.88310976203858,-2.50050926214145
0.148887288760543,1.58099637346697,-1.97399229211136,0.726893290699157,1.77441621271025,-2.19571085880575
0.394591667370316,1.77069269407217,-2.27259242201964,0.44658590411568,1.88520073869295,-2.19220824787108
0.505287279417078,1.87369169406674,-2.34469279512252,0.316386608459046,1.86012008367126,-2.24110626331648
-0.474712944520333,1.87268541587472,-2.07888579540746,1.37969322716362,1.47461458568037,-2.23100326821872
-0.762313229167481,1.43008789702523,-2.01418542965728,1.57519275842678,1.47772277010359,-1.88431155509237
-0.425208899433071,1.20588942553638,-1.84598726755857,1.29948975905804,1.71733977570336,-1.88360494503991
-0.419011931102431,1.32499648901866,-1.72458696096969,1.31559438924457,1.63512050164508,-2.11661131064048
-0.161606595855259,1.70417298617274,-1.51538687403384,1.18098447822256,1.4149172253686,-2.02821051106488
-1.09361395228316,1.83250290620418,-2.19959816299406,1.91559337963772,1.30780284414198,-2.08561667152065
-1.65671215060302,1.74618598536876,-2.05818571004455,2.47409139716402,1.21981646806884,-2.25571225713068
-2.01861421441633,1.71798626249658,-2.30249665381666,2.73949041946414,0.899923925657656,-2.20031034386829
-1.50150717423119,1.79341166840219,-0.969383136245304,2.38918419013624,2.12971667034875,-1.11951111328958
-1.70781337453919,1.63368797419384,-0.646982452279737,2.48409444521313,2.34450005347538,-1.12821416620122
-1.64200642473496,1.55237719729374,-0.337285093774917,2.279090664183,2.47040067201209,-1.37981354101412
-1.20161177798448,1.55098324852483,-0.290779745135196,2.00138402527186,2.23441056623825,-1.02210648295897
-0.855108022992689,1.39587859882481,-0.589791039519326,1.89668322500921,1.84371851091649,-1.38601386763784
-0.929515427473303,0.710787281566168,-0.133883625460873,1.85488794896842,1.86781983269995,-1.26181014574307
-0.496207134692735,0.800881666742237,0.300821142810703,1.60638493746712,1.66579847533352,-1.12630900162049
-0.112806787761326,0.512988159248935,0.47961543570951,1.28428697913965,1.29191097129153,-1.62851406002667
0.186692239075832,0.074186596577145,0.470108325124955,0.699686071412713,1.30111814335832,-1.75211373809509
0.642790353366783,0.237395525020839,0.483219094912677,0.209288703194341,1.00031928584974,-1.54401150090764
0.663493254467724,0.422792469121483,-0.102189014166532,0.138884932756825,1.39130940875458,-2.08250931735376
1.13539301315657,0.123486230180112,0.564119867363678,-0.482612615456934,1.06081698475252,-1.73471041036097
1.05178733168458,0.247995111551385,0.653417896686946,-0.481908902880142,0.812021464723493,-1.62290814434303
0.994385184642441,0.043487583275915,1.37641747073664,-1.27771333462747,0.278212412786788,-1.21150590797317
1.26699203651364,0.793593445215048,0.620009118577018,-1.61430942456246,0.710816475776086,-0.797813334927324
1.66479267345618,0.721278587122708,1.22800869231698,-1.93971320265637,1.32631009496597,-0.056905577652058
1.38338982652764,0.424489024370625,1.51241585216193,-2.12931451701958,0.982512822105612,-0.021108512485042
1.74869210872656,0.042187108196334,2.08711700271334,-1.98550490192102,1.33180448692673,-0.020507121032705
2.09899230100116,0.341096007941668,1.9673090603761,-1.76241144341934,1.70850026724246,0.122393281699077
2.35528911251613,-0.085313602636001,2.40051814600481,-1.63820483163202,1.82140623521462,0.037886282244405
2.72359107256306,-0.176013323741011,2.59541848336098,-1.36761128366514,2.0472061071779,0.148890858961804
2.58028679149178,0.272594706533586,1.94970882530226,-1.4666125334848,2.03280559706909,-0.038311982569613
2.81209196421009,0.440396167184995,1.9423048069488,-1.23040638463586,2.16840643928384,0.192088414285568
2.98659361487175,0.170887254523373,1.7624090883463,-1.36621275918857,2.35521969161005,0.225192674969144
2.93229005313316,0.089387307552266,1.85001573424512,-1.39230716094733,2.3021236298362,0.218985794259033
3.13199289995329,-0.260613628639597,1.54390703674941,-1.84931588547121,2.38822724478412,0.493989795539641
3.07119042556641,-0.461413796032905,1.6226129844069,-1.89641197187328,2.28081516862492,0.363888315933315
2.73578820776553,0.173993313834885,1.05300798779314,-1.75710626299317,2.11941400946428,-0.135514828897482
2.41778819306804,0.617200540569042,0.524608351671462,-1.73450802953701,1.89461146192349,-0.77691736186008
2.81238906951817,0.713990143694422,0.807420627875776,-1.74501322007732,2.2790081235275,-0.943612730263502
3.01229188499024,0.520688596330261,0.906818225541491,-1.82991330550719,2.40331156396828,-1.1530097832652
2.80768590102566,-0.216513982333574,0.971419362167048,-1.93971363483205,1.97551677201262,-1.91011024304244
2.56428710462976,-0.242214573963518,0.620707855065055,-1.75180659031703,1.77612145912891,-1.66341235181647
2.02338616674219,-0.646517069337663,0.326505136097098,-1.12530793593146,1.83062218739062,-1.64750124907041
1.69648728331822,-0.571410496245518,7.11563353755547E-06,-0.884106528315149,2.06100329113213,-1.77921557377882
1.53568690146641,-0.410209672753699,-0.441995535459609,-0.857205298361418,2.3147984494468,-1.31741281412215
1.92009201007643,-0.643619492855305,-0.475695612818338,-1.22851402102774,2.22151411663324,-1.0460094432538
1.84128630498181,-1.12381507289439,-0.718697113433271,-1.63971564180877,2.41182001910461,-1.74651502446969
2.26459086502693,-0.7654109480017,-0.385087091526151,-1.39230651679524,1.93691531145069,-2.39121369865025
2.38259217235194,-0.37170988023892,-0.375183358024927,-1.4989150806351,1.77430554320834,-2.09090662435235
2.83858902785937,-0.041908704856984,-0.331984275950174,-2.00131760789081,1.57920634304693,-1.75590495276536
1.95058707189149,-0.995424123555047,0.280214897065695,-1.05760886218759,1.98391726114195,-2.51911464424214
1.68978666598586,-0.682808844563392,0.510414598965374,-0.812706170401742,1.7821164584066,-2.10430902123723
1.35948811699026,-0.54940950350348,0.469906998122158,-0.524606667638191,1.74671448067117,-2.04130990146721
1.63499244904964,-0.999225452907939,0.518713401322203,-0.75511518054326,1.98621333439602,-1.63561486475038
1.42338791055887,-1.29061505733945,0.785613567356554,-0.552908491459897,2.01560668828807,-1.53821090718804
1.53759236201744,-1.54681512814076,0.706506962717516,-0.708615093988693,2.19711345450296,-1.74011610375753
1.49448705559031,-1.61711647957518,0.577603516114416,-0.748909038572269,2.3402074561463,-1.8411174815827
1.88639179227757,-1.54719057143662,0.382499928939264,-1.08361605023803,2.21641589003926,-1.55020688225141
1.99618957245792,-1.21390953959776,0.503515291922571,-1.05490536024072,1.9818064352927,-1.25690720084556
2.46689152728636,-1.47597684285899,0.285200568693216,-1.33151662397197,1.82619788619405,-1.11810638423983
1.6936883582289,-1.90581825205807,0.692116826640112,-0.945405276945505,2.32242136835864,-1.43511558254538
1.62909110773794,-1.61850438701758,0.760814538979386,-0.747508631957807,2.18871468186417,-0.519706758120149
1.6789892742068,-1.2622091951939,0.39840367045116,-0.831412083408993,2.21511031647443,-0.606412298973663
0.792986690080521,-0.732909567771994,0.628015298618934,-0.004705384325763,1.77999999435404,-1.38121294200785
0.388287747808008,-0.61080857320404,0.39570705973213,0.361287960087999,1.88670472410862,-1.32730877223329
0.504891740074076,-0.6411245738462,-0.049898447593373,0.294386582569318,2.29070732236883,-1.77551487134354
0.601188423914779,-0.449509691288646,-0.226689104225385,0.198684685797522,2.30560335003019,-1.85460769287558
0.202187590473276,-0.888114455718555,0.304113969449417,0.544893588525113,2.10100981717595,-2.26361327871994
0.586391604413568,-0.513208031284948,0.507917245660585,0.185184440837179,1.66610714834747,-2.62561398810062
0.727292009160987,-0.833916453971379,0.492405679495878,0.053985484613079,1.95220899941319,-2.55711195568363
1.08009195470625,-0.893218409149178,0.780215485468585,-0.250714291850885,1.7240159061711,-2.60201389716115
1.29399101770171,-1.04592104670448,0.715606140843048,-0.433014844708972,1.88660745472794,-2.68231322391382
1.10429041425017,-1.22330909113961,0.651104234278162,-0.283406040244856,2.09640859261743,-2.66240860142967
1.00468664984121,-1.33462529758261,0.869315092352469,-0.185807558114419,1.99372319712616,-2.58541112674722
0.740286700842055,-1.58161951749471,1.16981400787562,0.037691120736944,1.91400875197574,-2.44981179096298
0.614689995254181,-1.65342198876065,1.08570603555815,0.145791938741431,2.04440211576534,-2.35971019934481
0.647193623068821,-1.69821320845648,0.990905101253873,0.124288559322596,2.16730893954851,-2.33951013695026
0.350486766248461,-1.77231777713915,0.957705981321866,0.402294668211803,2.20940911456817,-2.08311153671667
0.03048759579048,-1.528309917348,0.995015875429527,0.631394149260154,1.94101788818559,-2.12861409328572
0.043793272445828,-1.44460909825343,1.10621325884756,0.610385085812703,1.80502122887775,-2.2807111006119
-0.146913801682872,-1.38310900867426,1.42271434406402,0.80079311743622,1.51462114640077,-2.52521615956045
-0.20991170430505,-1.00510976476088,1.21810831203771,0.908692852304706,1.46701546703695,-2.73571154867356
-0.292613657830267,-1.15142423579045,0.676507997879265,0.918192705458678,1.86170501695449,-2.14541048778065
-1.06560899581353,-1.14620822630185,1.0884149907887,1.66019070503986,1.57661624091597,-2.49291310452101
-1.2360093578786,-1.56012576331357,1.36731422156941,1.76659165966022,1.45752254090609,-2.22430775181079
-1.15930732242809,-1.62261608407674,0.924005804908742,1.50708595576031,1.45379912961297,-1.5596074143775
0.208289785603266,-1.94862368555139,2.29531931715244,0.574186392544874,1.17959538718974,-1.36010235261622
0.605491956093092,-1.3847100533584,1.7614094295115,0.177884992872662,1.19931511989614,-1.34270943207661
1.10109145039963,-1.41701868513316,1.72750870766862,-0.288813453599612,1.27100191857263,-1.1892115242209
1.10969123826726,-1.3573078973719,1.55180785014681,-0.282407136373643,1.39764531739826,-1.23631041329738
1.38358897063994,-1.82801995651345,1.53260609742046,-0.484911481770557,1.76800623512392,-1.36331356584413
1.27318810335029,-1.79069861465357,1.33410531443405,-0.385307725873112,1.93990308290064,-0.772107317516473
1.57379192709964,-1.40181009311898,1.35971713143034,-0.641715366824788,1.62611687672282,-0.690510669120889
1.45958763507793,-1.75481583231165,2.19621744643777,-0.677011257302993,1.14491398743649,-0.944514137471683
1.74159183309805,-1.65500978729403,2.39442101553961,-1.14410806391606,1.04091129468212,-1.74531202987251
1.55938835422568,-1.78971774818064,2.14600973159175,-0.758107705982467,1.19102021257523,-2.19451518173087
1.35908781307658,-1.73670868819716,1.99321014760022,-0.532010664802984,1.25280273473011,-2.32220913346172
1.31088702246654,-1.53161053290358,1.76110893918386,-0.475506598229475,1.30740424977276,-2.37891251453659
1.13838911159787,-1.65621577862588,1.67580778815271,-0.296507521383823,1.48069758875746,-2.46501025907521
0.923488902438218,-1.72362088877692,1.77161476231539,-0.116811363673595,1.4408167912362,-2.45020980644875
0.843389538322674,-1.7623144035414,1.6387057032582,-0.047112643698248,1.60730972364755,-2.45531225229122
0.794090357543715,-1.94301532882231,1.73781395613514,-0.00730752768227,1.66039944548768,-2.42131176947337
1.77259234037976,-1.83120769508326,1.91791977568558,-0.865412390075315,1.4074126309266,-2.38630168898036
1.89849269579742,-1.60151023437007,1.69900827059463,-0.974314130525149,1.44689964837012,-2.40251031171744
1.99429260385376,-1.43930956191955,1.76131705586037,-1.12970653658321,1.3763167775601,-2.20340954182693
1.77618711862381,-1.39650927179178,1.54970858504581,-0.875711966166615,1.43799997733018,-2.39040629341177
1.67888753855842,-1.23531016275514,1.53001041091792,-0.827009525330616,1.35502076444681,-2.30820664133216
1.56358756016862,-1.21440886777581,1.46310783516918,-0.708211481806236,1.37350234731237,-2.36780786802446
1.52618654761282,-1.3980175092922,1.52011429065609,-0.644708703804444,1.44060390841499,-2.43471140298487
1.66859217752152,-1.61571785865365,1.65241653508717,-0.754611112971358,1.47601201734609,-2.4570102353318
1.59268894927944,-1.81012365917744,1.57260713340835,-0.657306843426657,1.65790096255571,-2.60481080181219
1.4770870419912,-1.77859973952841,1.19280614481673,-0.576705602886579,1.95930423224781,-2.76081401144029
1.64119210352765,-1.7880250252615,0.88690619292016,-0.769912835113729,2.12981008814176,-3.0244116840451
1.78999271775398,-1.57870762493843,1.01361463754753,-0.830009977943809,1.88221753219104,-2.88830690692662
1.90539078960028,-1.41940939959701,0.954406151046839,-0.92521494019996,1.80721838019817,-2.86820996422817
1.79528733529083,-1.40351113660731,0.850705838795074,-0.845712715698909,1.89780326092417,-2.90311247238816
2.13199248714185,-1.18631101835592,0.818402548556333,-1.13421596719936,1.72271603908928,-2.86070800744749
2.16079089167861,-1.30491844822643,0.819412889077781,-1.14181018241722,1.7447099474067,-2.95101137922141
2.15238655675931,-1.18310986846245,1.1175159327707,-1.18311727348778,1.59961562995871,-2.59770746779597
1.90458880648344,-0.839709785470094,1.22541770614903,-1.07550749643019,1.4262146030746,-2.23500694380097
1.82538981943503,-1.20921689032921,1.07750698575358,-0.886205750796853,1.67410615847947,-2.02211429066846
1.53468775501678,-1.16291044036142,1.25501596690864,-0.655707230652129,1.52542248518292,-1.87271107465003
1.37208751650297,-1.12750900736349,1.31391651013277,-0.526607455832383,1.44021669596438,-1.83970886702254
1.15158665941108,-0.670709309389866,0.975307645720958,-0.35600816446155,1.37551912440321,-1.8884130446058
1.32899218403929,-1.12371643099972,1.50971577735726,-0.52781436239971,1.23291440872933,-2.34331446075823
1.0950873026529,-1.14721403369944,1.4929073934565,-0.294809055776872,1.23760247956804,-2.43451102544182
0.931588054343328,-1.31581604240778,1.30860746303502,-0.121207463356065,1.56150765027177,-2.51951007685063
0.748087560242884,-1.50561530212489,1.40951383665493,0.031489419114208,1.62050415099179,-2.48441095472118
0.64448710222277,-1.57802489122453,1.73531551094993,0.124392475401225,1.35302088137295,-2.48971394019571
0.683088835380419,-1.36561043305311,1.76151799448551,0.102586697284858,1.13631699134852,-2.53271324411078
0.565692166070346,-1.35880921241336,2.02361985777094,0.27589351474261,0.856117595617214,-2.63450930685326
0.268087570755088,-1.65511532450947,2.03801417010746,0.512990007195231,1.1423091151499,-2.62050975378972
0.339488850750193,-1.50620862339598,2.42771745092555,0.735386954461544,0.667220666176829,-2.36120951380821
0.182286085488755,-0.506608732351282,1.52230833193988,0.940193479059828,0.847818585001912,-2.68731408139427
-0.033212317621714,-0.033607226366215,0.993610446205656,1.12768672655288,1.11870230294414,-2.79141345918593
-0.558011522808821,0.02099132321235,0.802409328051387,1.46219177395493,1.57510848583389,-2.78660568062606
-0.679514377473254,0.113493622192867,0.944420018834908,1.583689463975,1.67640600614021,-2.99171209135718
-1.03511247689862,-0.288113321627054,1.49161821137633,1.70649284938218,1.9257030304189,-3.09121528783533
-0.830407201117778,0.023591627648064,1.99952095887279,1.55748409996722,1.85840407203997,-2.58811195085535
-1.38061306200004,0.69899987347943,2.22201566625404,0.847785987382913,1.9710230532633,-2.82421471075992
-1.05560806548187,1.70410259718393,-0.257293801554393,1.88509426870184,2.13981939464137,-2.4803094899317
-0.152606558184268,0.961388412713845,-0.892892847636027,1.0966862263641,1.58498939415312,-2.62811474885193
-0.027209382564415,0.963792645697201,-0.599682426178561,1.03868543769403,1.41391494111314,-2.86761132954609
-0.299009835452905,0.906987006228962,-1.2093943337752,1.20019399794782,1.72740022141298,-2.28820962300171
0.18369224169893,0.432786194845815,-1.16658375850233,0.741885298278193,2.21360856549496,-2.11700660542778
-0.080412865090846,0.332486002192885,-1.12258904388577,1.01029170259252,2.12432081766929,-1.94271280080425
-0.395012037105458,0.283986646515968,-1.33869598835138,1.3121925361335,1.98591789329154,-2.15821058283785
-0.444310769117431,0.198584848465563,-1.21278704644551,1.32919617173704,1.97451666882723,-1.59161124909071
-0.554012420031252,0.381891647044602,-1.10068678501748,1.39469436576082,1.8279198338428,-1.28941384165066
-0.614812373937199,0.295887942433196,-0.646886704937413,1.43419202835339,1.75311945591362,-1.68411299515703
-0.305507887445896,0.19938670773358,-0.181985817447563,1.1229921617919,1.70772307578776,-2.05550953830289
-0.555612528060133,0.206392624492407,1.81903413742019E-05,1.39479171975451,1.67692052607146,-2.22951062191026
-0.683812151121396,-0.325815086834593,0.332113260697726,1.40279172488887,1.70381947554489,-2.06360925147512
-0.917809413058002,-0.117707984568468,0.641416621236081,1.68889282835912,1.79911989885308,-1.91950608531914
-0.91510887692308,0.410396564528102,0.646023313029779,1.72179413896999,1.94821860291075,-1.72260935565535
-1.36301269484169,0.706690149142079,0.258808665460789,2.07059062991738,2.21961759885609,-2.10341147258631
-1.09290763770215,0.289085294633013,-0.317692235288735,1.92458428146146,1.69660115331505,-2.00240520772813
-1.59981139499622,0.308391438356326,-0.387192534631274,2.41508905690849,1.64411911723694,-1.97791083088837
-1.99591138863731,0.806098290372254,-0.441192648567004,2.81419550104825,1.98030583057118,-2.07611397873197
-2.22681167459303,0.754286366529086,-0.352883877677221,3.01899016857638,2.0344022370731,-2.01611160320309
-2.33571186668574,0.72749302722701,-0.194882069105092,3.11739117529225,2.1599002401988,-1.97471129818434
-1.94670863029312,0.338488155000655,0.493620379666894,2.62808584371857,2.41601720853903,-1.71591100563068
-1.59910987524004,0.114286743703689,0.552518628224857,2.30358432164142,2.18151842008432,-1.85010809448752
-2.1825126851753,-0.249914549115013,0.614421082184821,2.9517883720739,2.07580017588835,-1.48860781444905
-1.35940934142288,-0.96601929425696,0.505704824112139,1.89808608774377,1.49349969334479,-0.96390760233184
-1.94261268259202,-1.24369634201357,2.99605622633914E-06,1.65458706694426,0.645409594095582,-0.892907967344017
-1.09300827795448,-0.354310851593295,-0.955898139679078,1.53588672224481,1.53331225879405,-1.14461730410354
-0.875908986327818,-0.193208603904078,-0.909583534790785,1.51408547651464,1.69591290099725,-1.44431556615782
-0.656112166781781,-0.176809101638166,-1.25538599039067,1.46138566784206,1.92170739710038,-1.04391039600727
-0.395110942628263,0.184190652999477,-1.50088276624223,1.40928380422432,2.09090608791562,-0.621414304614507
-0.506112650106631,0.141284987798139,-1.79189512894163,1.50399053256501,2.0241100665358,-0.787711796483567
-0.403908594231888,0.247891552127139,-1.906585659314,1.50659226855789,2.10140523195078,-0.787406501920836
-0.030408149231341,0.453990748741637,-1.4250867411128,1.05768744766428,2.24421712705557,-1.14281400169318
0.137991438428204,0.325485300971331,-0.960286664105748,0.771586412286212,2.1816151109898,-0.969612025294603
-0.089712534449062,-0.046914762939208,-1.13039640973825,1.16659349487445,2.32181412081672,-1.51470592765851
0.144089064588308,-0.431917083194475,-0.412886437217125,0.740386680843358,2.32202345241187,-1.44030657542196
-0.273811575895952,-0.751600865797542,-0.297085957181231,1.12679154775325,2.20140440444695,-0.995910079862383
-0.003512073410322,-0.404009746796863,-0.3462972685526,0.861286198905129,2.21592835768151,-0.842608659554455
0.395991223181631,-1.23210166416042,0.39011397203453,0.418086351386123,2.34662540493639,-0.945413725199884
-0.289011193310551,-1.95329426505097,1.53061530722639,0.865094008032126,1.71281561587351,-2.00941002366327
-0.968111035171301,-1.82591083790556,2.43981816453976,1.75199317709517,1.51029480148949,-2.9709144119627
-1.67301295446697,-1.90121648627119,2.07430675564515,2.36019174168158,1.54620881686642,-2.47690922235645
-1.67781230934069,-1.32911057548068,2.13252048587569,2.31318730148574,2.07890928046579,-3.00431509875661
-2.128213087048,-0.444709387264879,0.918009104744967,2.88349264621612,2.11202851614899,-2.73090961955679
-1.64380862983433,-0.198008660485701,0.904708023959794,2.32168598591204,2.17240796594373,-3.08731094506338
-1.81021460147405,0.398593652093579,0.298808892977316,2.55739408431161,2.23521522077784,-2.93880824786508
-1.33480792366522,0.308486801464167,0.272907544301399,2.13818753133472,1.9929162550601,-3.07211399053966
-2.25771333735118,-0.817878052273831,-0.222298865334722,2.8303925965323,0.492899382302759,-2.20380363913954
-2.42381262583394,-0.630010578438919,-1.03379785022731,2.82138507832349,-0.311179263000586,-2.02191110393501
-2.51381296001741,-0.60731042343002,-1.74339511341899,2.92329371948758,-1.13639198192252,-2.07841276528947
-2.91521249982908,-0.826415849500824,-2.48279252503028,2.4751842007465,-2.07269188509361,-2.33701411273835
-3.04231351543968,0.509591000050738,-1.25638164407589,0.907983266258892,-1.13618075995856,-2.52841484638118
-2.38030848056772,0.658496742199259,-0.170883366097836,0.090984592154828,-2.14548640337926,-2.57121468659653
-1.66640913406082,1.32499518279273,-0.734093184094315,-0.538814398260633,-2.0608773869612,-2.17630845570478
-1.77481473723094,1.9481869700368,-0.882193909775617,-0.535908393610238,-2.37209270588405,-2.26401769949712
-2.05951279373112,1.62087707317443,-1.57549223297195,-0.181306511065076,-1.56399048547114,-1.87340811734491
-2.14601389920366,0.855787826710034,-0.70598518392124,-0.121306459182081,-1.76578663183578,-1.33420602448087
-3.02651334925471,1.70478370630707,-1.26149403951911,0.613893472306007,-1.85649810849844,-1.55921769300118
-3.04161374014048,1.82970605403108,-1.89639518040482,0.748390395380671,-1.42858894601974,-1.8505097054487
-2.87870710624026,1.5806883414362,-2.44049068999423,0.88949417527812,-0.75479052432384,-1.78050519318917
-2.93351040675528,1.56277955444586,-2.01438479044864,0.593184210034762,-1.106180810256,0.448285586978645
-2.74301076198965,1.55758817725374,-1.79618594513311,0.352789651060405,-1.28357857630817,0.594088167457469
-2.78961418475267,1.31248939537125,-1.71248439115749,0.428791251365999,-1.17119809445464,0.479284482461545
-2.539408000854,1.49079495575981,-2.09219792315921,0.21818472729225,-0.897290466422763,0.568491896097781
-2.22340829738925,1.29728817292653,-1.67138490201893,-0.128210055757051,-1.17198664575321,0.680687175308984
-2.37401166206336,1.12648816139299,-1.54958763710934,0.019990043815495,-1.14429019247986,0.602589191661018
-1.84160882960234,1.53998937864756,-1.57889445871523,-0.43511470742582,-1.48218163889333,0.668992848566306
-1.75830750177656,1.59688746273108,-1.70839415116877,-0.518213082008608,-1.40900124852692,0.716888587456213
-1.60530779146409,1.49228799044593,-1.63068404886149,-0.657209971717383,-1.41197889946926,0.731490248552604
-1.61931080988071,1.32918929685803,-1.6119886169917,-0.679515233140399,-1.32049736323839,0.806992594430465
-1.6674147209114,1.06498853878455,-1.37838703056625,-0.645306038443842,-1.33138117414251,0.781789394947472
-1.76981003930886,0.829288050902807,-1.1818860792004,-0.565812637150041,-1.31629057037375,0.751389786502929
-1.94461233611909,0.578588302408187,-0.837687013024312,-0.391408530479229,-1.41228082346873,0.62819108062613
-2.0809141851164,0.854398461811124,-0.67058515050147,-0.23520745383741,-1.79588272819271,0.52248696409984
-2.03050816244081,0.84728828537598,-0.649590501391098,-0.279410152796567,-1.80778036172302,0.511190697905255
-2.23281285011579,0.860096960753621,-0.639583926833211,-0.10410838487954,-1.83388397507889,0.542789083730327
-2.0717081621323,1.05219522265348,-0.688691621026686,-0.242810115931592,-1.93548044590954,0.511883375404584
-2.15840883972516,1.24069308098535,-1.05419400233082,-0.16240727336217,-1.7470878953873,0.584491157352456
-1.86690831133814,1.43660515632665,-1.11759220497959,-0.401314734149968,-1.8227898262445,0.519289336364336
-1.75090870347491,1.4893827494989,-1.36809267499931,-0.498013734991043,-1.63190119313671,0.585989780218454
-1.52260826403495,1.71018332991563,-1.40329148579278,-0.676915292997885,-1.72348274860295,0.479086730267039
-1.40900902841766,1.9604915999718,-1.47209230303783,-0.766412155091137,-1.7892866482555,0.365188113731339
-1.13250725618538,1.73078926629223,-1.38328567196189,-0.995507862286276,-1.66179425258884,0.377791871049437
-1.21541243255722,1.53318814376026,-1.24428357260066,-0.937107065685602,-1.68187895008346,0.414988972283279
-0.967408672774308,1.39988850895485,-1.32109267961056,-1.18871229103144,-1.56609090813932,0.556794036208241
-1.15521267212634,1.57949967396206,-1.5098928703329,-1.01570627170657,-1.54318909536262,0.59208863876608
-1.3221123873472,1.72349432087012,-1.90879127922306,-0.932408743938214,-1.36608619741918,0.828186546372776
-1.76251296603293,1.96129043594671,-2.31639550346004,-0.596305766241332,-1.13009414689908,0.930290099719743
-2.04251397589298,1.97119165900249,-2.2246840252639,-0.297607496560515,-1.19528028294153,0.804085184017722
-2.11641418962064,1.88368826393687,-1.81888347859281,-0.198708560620576,-1.52777946867349,0.692085296715063
-1.52710734213001,1.71626516538239,-0.775182104438037,-0.769014939515977,-2.17738597155787,0.094185206184971
-0.527307590034151,1.87401019981073,-1.3307932837097,-1.4503165419435,-1.4573802973408,0.143795147905771
-0.130408833779376,1.93418454102291,-1.04958113238708,-1.57231590778754,-1.16947980092446,-0.199115275253301
-0.128006689523854,1.63848716138415,-0.777183538985369,-1.63221132240683,-1.21808877213351,-0.187012462697436
-0.515512987845736,1.49118607574154,-0.52987679295816,-1.39000725336546,-1.57518264673701,-0.283312656917351
-0.218008326973011,1.27077511962496,-0.169779489267583,-1.52421736994716,-1.33968480704868,-0.451012467263944
-0.789713923258801,1.14580050799029,0.258715959740139,-1.34850762101926,-1.90968716508069,-0.664413510220421
-1.18031010012434,0.857177945973102,0.437217249328213,-1.2640053944825,-2.18739249148841,-0.517108301292971
-0.937108544988364,0.937582446181965,0.689217680349127,-1.42481530352561,-2.05978642729134,-0.869815137257537
-0.592808850510208,0.672879182462282,0.600705055249206,-1.46721527146427,-1.68288525539621,-0.623907007438382
-0.723311133648591,0.497387709042549,0.386009843138231,-1.46380785179033,-1.73809198689636,-0.283709784170152
-0.606811977759131,0.477987065279864,0.174310232917437,-1.57101296038541,-1.64689720356359,-0.084409390092766
-0.421707568252611,0.293187104363181,0.342518963821411,-1.76131274328054,-1.52899694690761,-0.071206637582723
-0.706610179975406,0.671489360270579,0.439920429466543,-1.46030664175888,-1.76948906449353,0.141191958468944
-0.561908285461251,0.458287845788873,0.33680688505696,-1.60911532416923,-1.62749287090668,0.398089511159748
-0.638908990266822,0.67029618087844,0.499620051811443,-1.50340766320142,-1.73478589502665,0.698088965384614
-0.682213730720677,0.892372764887708,0.583925031315811,-1.45650661749727,-1.82329261178543,0.451987782120099
-0.928213591108688,0.877472645014329,0.161508721324238,-1.31380687007935,-1.93918759913922,0.260988967073492
-1.12311312845799,0.907405063074544,-0.43359109018915,-1.09040945989953,-1.8537834168682,0.788891505824671
-1.45311249282284,0.903285822819653,-0.765992632318044,-0.78041126525941,-1.71239015003055,0.477389314612007
-1.31390731286434,0.905394503367805,-0.579583125936159,-0.903811630687376,-1.81307810604464,0.328289172106883
-1.0930084006996,0.848886743321263,-0.435284059065994,-1.10651140929185,-1.8053836462707,0.214790128946206
-1.55560959866386,1.08449138551525,-0.664390935330973,-0.686310494640601,-1.9066897330338,0.343591323304044
-1.13020923736729,1.07778703559617,-1.1158929010207,-1.07681387908315,-1.57398233298598,0.625090579739701
-1.12770784874927,0.945387884214933,-1.22719462964617,-1.14080874126089,-1.48669004396548,0.834190081289817
-1.22511330683643,1.03879532997226,-1.47239291982944,-1.09550618025252,-1.37249603501121,0.981687296263147
-0.987007593041339,1.25209471562403,-1.81039314864552,-1.35660597851985,-1.39358035002099,1.18519338346231
-0.843408515615181,1.33089307913254,-1.84629073753891,-1.46870820135413,-1.45708316613961,1.16148888828573
-0.376808925886344,1.09198846037439,-1.51438397832708,-1.86661026287631,-1.70348347703752,1.00838534449175
-0.289708379755609,0.817287561692221,-1.44058716143766,-1.95361535132672,-1.8620853966872,1.15629074113601
-0.101408713515391,0.780686939882936,-1.65529778944057,-2.07191126086047,-2.08418151550869,1.35178942906482
0.182692511314001,1.13889517000457,-1.87989517040182,-2.39191489170729,-2.11218938334339,1.1270875547294
0.509392157327433,1.27299923605131,-1.36248353343376,-2.80751070039604,-1.6405892880593,0.649787445720442
0.044788849717655,1.00598883262482,-1.0958844323511,-2.28210765604575,-1.66718754494804,0.645486475930073
-0.117909335056765,0.824188602702565,-1.01488564655607,-2.12910587019155,-1.73558068840626,0.71748842945016
-0.293313829657196,1.2490004511713,-1.05269221844716,-1.83160656038914,-1.50698905518763,0.425386148754841
-0.501915028909729,1.85808965636667,-0.452178780704528,-1.30690452223659,-1.67779550777275,1.20559240788142
-0.32350778470062,1.73708649465809,2.20762037730253E-05,-1.26710518727845,-1.60768493399646,0.863886557951119
-0.243307479098832,1.42398689397903,0.582215648190134,-1.24370791784748,-1.60038625817774,0.586088856052789
0.116891941817367,1.36089489433064,0.203606718332716,-1.28431396262655,-1.04868243871228,0.263687087190108
-0.467912392579082,1.15008232568834,-0.243293109855483,-1.52631443190753,-1.58929553509712,0.96879244174978
-0.364808513407462,0.843688122562504,-0.303792386506006,-1.75121512512546,-1.55997983352911,1.28359132470574
-0.60781375055129,1.22528227258106,0.148815098307077,-1.41220527441934,-1.78649593620386,1.19048361170633
-0.285307535620597,1.41609076512698,0.579020211320746,-1.27610729156109,-1.65748360661001,1.23329362837581
-0.682213181772217,0.86597393102045,0.581119054160591,-1.46311400261901,-1.86339284441545,1.72599173971364
-0.431807528873787,0.311087435345904,0.751720773087031,-1.6738193330289,-1.53677919252034,1.39308712426473
-0.045408464697151,0.807988151391498,0.556407812037687,-1.59010638223516,-1.21848520654831,1.7722926388905
0.088491366898342,0.316187595424211,0.335308613514221,-2.25841562987262,-1.27480477188541,1.27008609568103
0.187191858462802,0.323994348173956,0.519017030332975,-2.2628144938291,-1.08347122442801,1.16748941236338
0.506592266896969,0.422897613612251,0.589518924532036,-2.55301437244745,-0.728177589340786,1.31189191117594
-0.509112885355841,-0.501514387423141,0.568506475121382,-1.9340063713848,-1.66578443772178,1.03438368919384
-0.328910403379869,-0.69161592677492,0.41690520549613,-2.14281402541153,-1.78928394392054,0.749889634306037
-0.379309371337979,-0.862117485303947,0.584412501490373,-2.12150901045334,-1.76429023184263,0.780588665296532
-0.594510976083893,-0.875821424801236,1.05371735653571,-1.87160829274299,-1.56818872798365,0.375688710318764
-0.722809163153219,-0.83720961910683,1.20701752046172,-1.707012641062,-1.56729159639738,0.18849002400151
-0.884810637938744,-0.581909977634237,1.1000094504172,-1.51561092686466,-1.67668535943591,0.024390498425653
-0.900910342479001,-0.421408948174789,1.13612040801016,-1.47290608315724,-1.72877683415986,-0.153711876256481
-1.11420984146842,-0.593715562687098,0.9731062874641,-1.31600760653565,-1.75288942537447,0.15928940723874
-1.36561285174434,-0.507309280313531,1.33181964697124,-1.13270649392443,-2.04349379238932,-0.149214752058754
-1.49681254219932,-1.01311536825908,1.51911804282814,-0.974707366332838,-1.8808923052201,0.185989592347502
-1.5803131022889,-0.61880856730969,1.62341901893253,-1.05021507915923,-2.25688941813448,0.400190168387591
-1.54910748045945,-0.326708384182244,1.27680980761348,-1.04210947790427,-2.2507777525259,0.415189997253094
-1.66611285957965,-0.364412191344771,1.26611034987463,-0.914311700884366,-2.29438755633054,0.517489192774413
-1.02610818001342,-0.74951891176982,0.563706835753729,-1.4893149312038,-1.62659164536726,0.694292903013154
-1.36381496833718,0.014591646866058,0.542709224267733,-1.04070605442764,-2.02250040560542,1.27849184351322
-1.75151114533607,-0.3315137594207,0.361306660800793,-0.646706877055445,-1.7357833481759,1.06648664081358
-1.95081361497083,-0.004509715080216,-0.338493939679391,-0.436308730006298,-1.37738883431621,0.627289673183296
-1.8995070544158,0.407891957986814,-0.177582619154602,-0.421407625354642,-1.8737928400927,0.431286850283697
-2.18231314370925,0.660695128490987,-0.355091204182979,-0.153807257283318,-1.93558442464159,0.502390416304906
-2.14891206969577,0.78050495859551,-0.176880938625204,-0.200114355975055,-2.19037952685102,0.471088749848448
-1.79370821555076,1.08428452447758,-0.221292395529854,-0.598215472691491,-2.3155875045465,0.809287259330056
-2.04580949418093,1.36678809641101,-0.490690031590352,-0.331507421272513,-2.35779477953019,1.03328744470419
-1.69931204035834,1.18018222427716,-0.508090097901176,-0.612314536595515,-2.13418552145594,0.879086083381535
-1.35680774144372,0.617987982988909,-0.613493031369967,-0.912914376835065,-1.67798877311025,1.14469143499235
-0.987308384602896,0.195886472764327,-1.08119201407561,-1.48731526078168,-1.53877767101297,1.43259233322939
-0.81000885333989,0.080486271284233,-1.08178470101423,-1.62200667408525,-1.70038486501812,1.56968847587252
-0.618008356390258,0.244991574787225,-1.01258621501425,-1.72031382617413,-1.79358650076657,1.29558598795422
-0.474510634801603,0.030885456647,-0.921786842553236,-1.83271416393977,-1.94678920186659,1.39998986041215
-0.358109060660544,0.16888934519402,-1.20579720409321,-1.85940829561329,-2.05078331873853,1.55529153871463
-0.366413575629317,0.287990455679588,-1.21008651193182,-1.87461178293385,-1.99568795774423,1.4329910353828
-1.03531315322023,0.823492831061837,-1.70789644227866,-1.43321030924787,-1.38359185226346,1.49449268359871
-1.2811121859664,0.526786933124206,-1.54028744463019,-1.33750805502992,-1.21549664046254,1.57879026253758
-1.5177138582919,0.253387118945463,-1.2262858922842,-1.15481248743195,-1.07959895973174,1.42948607338225
-1.34470776539532,-0.073115402446498,-0.838186364645536,-1.28621222267768,-1.29408313286157,1.40479207095671
-1.62371352490829,0.551594320290186,-0.594382871793677,-0.668608125818519,-1.6693932290583,1.77449244718259
-2.06861068880824,1.07906712142482,-0.493381447155121,-0.26650592165343,-2.16769713417546,1.69388719545349
-2.33101207584942,1.16399572390042,-0.812491541464125,-0.018207845119358,-1.95599051651205,1.82448410042069
-2.16130954777615,1.22359434969365,-1.10989277411762,-0.159514369887466,-1.71879068309402,1.81278581710669
-2.00260860715414,1.25939927153161,-1.10708355747661,-0.291411941049075,-1.74617905224352,1.79459035371531
-2.32601332357839,1.10048844928658,-1.15359451173236,-0.022908062726448,-1.57407858523444,1.80958959672917
-2.61181301399656,0.685388391757919,-0.63828583137769,0.228591579123165,-1.72888111137119,1.75668717631271
-3.02111423536054,0.687092473200035,-0.626984568220615,0.594192713112437,-1.73428194949948,1.7666902305671
-2.38760849452164,0.848393123347078,-0.998393891194832,0.024085670510569,-1.49238949592981,1.15959237976674
-2.31300916929832,1.19059323385569,-1.30399275527776,-0.041314720705538,-1.4795827057586,1.21819076080029
-2.13261283722827,1.70477607052488,-1.56629217237752,-0.186414868074174,-1.64837970211865,1.26419147989139
-2.18270920679267,1.78629139513868,-1.42108227364365,-0.145407035072375,-1.85457913151319,1.25628740502955
-1.89990695345863,1.96769231165073,-2.19649237401833,-0.415515646444891,-1.27069071756732,2.03548916129533
-1.88410769991944,1.51868952027884,-2.05018473495679,-0.498315410805305,-1.05619042201942,2.14258991252144
-2.2533128322123,1.49838859699025,-2.05209370130973,-0.083307049460933,-0.995297181276915,2.55789199140572
-2.13130899210432,1.48527851416376,-1.55268457557979,-0.168615324314688,-1.51138802065522,2.49718582130405
-2.1812127599314,1.51719956487273,-1.26798646363881,-0.1226064438175,-1.8150790221954,2.46488587570229
-2.67041314820482,1.64338446495745,-1.02528327243607,0.284494867414751,-2.112591982779,2.09238807761668
-2.33350766952192,1.97059165578501,-1.29879266521984,-0.01341329966567,-2.13509787739062,1.9599843390139
-2.29430870179514,1.67798826938734,-1.12378340624455,-0.048311052948637,-2.06859660318278,1.89218569168403
-1.59890666665136,1.21108855476326,-1.44069887294202,-0.676414863894598,-1.42819154056172,1.97579406161557
-1.32350872497565,0.599787453897201,-1.61469633631477,-1.2676177691348,-1.19168329569422,2.76499175650222
-1.11241159012454,0.460586857707616,-1.97468392422923,-1.65511488907785,-1.36398631187292,2.25998670952384
-1.27281319344322,0.969594098134935,-2.27079596462002,-1.56421097440346,-1.10988794713814,2.05408455986618
-0.646908856928001,0.302885709396475,-2.39078968707998,-1.60731457321316,-1.89109081916294,2.89958696092131
-0.687414537198819,-0.079817372165359,-1.90178451487863,-1.59760466340115,-1.91169800720077,2.79558575579207
-0.932012317845793,-0.164014874503895,-1.82788574775867,-1.69051459321615,-1.71708507624755,2.84809284790354
-1.12281297093026,-0.514614424262851,-1.45948637281244,-1.76201287431448,-1.61638552069954,2.93339053691097
-1.20891334785975,-0.114010404803051,-1.55309991263456,-1.70070871613816,-1.39629866767396,2.47448690432716
-0.723508130587256,-0.43832431588207,-1.02218503820884,-1.6875063238995,-1.90609363435805,2.16798748115212
-0.481109080703386,-0.278709919766556,-1.28318891066206,-1.66850903877045,-2.10669120842933,2.24879226190351
-0.231907761110159,-0.123008607423297,-1.48509715420759,-1.64580789665238,-2.30389040498131,2.27149125005864
0.008791656518894,0.146590414863941,-1.48939102402363,-1.87271396856797,-2.44299152903804,2.4470902795973
-0.121812510818516,0.420790814469144,-1.99790046248162,-1.69310752328793,-2.3282841173781,2.21098688011253
-0.344612556664047,0.712792111315374,-2.40439581148664,-1.67250630559038,-2.09578703989258,2.40209077986019
-0.838909662552845,-0.069215515119268,-2.55379034881997,-1.70631429572575,-1.8166865728084,1.63009348100065
-0.852012615510146,-0.247515853997546,-2.00258369258131,-1.7012075781157,-1.78698640243465,1.25808457446424
-0.954713500480704,-0.81911619409749,-2.28479011289868,-1.67770671018525,-1.89349062309738,0.924686887004059
-0.248110094811815,-0.950602097716171,-1.55358304750701,-1.14580891359249,-2.17719336325025,0.344791560073073
-0.602813898850271,-1.01551076120413,-1.04978504106102,-1.57031394093651,-2.05428616948308,-0.162009493397119
-0.592111991485037,-0.605210847861073,-1.52879632940582,-1.49440820707768,-1.99978517895695,-0.798114431277739
-0.20290805357044,-0.467609662779396,-1.62388923112239,-1.28940778712037,-2.2647899954073,-0.842314389170835
-0.331911264684688,-0.216509711913154,-2.25439588573218,-1.26970559654029,-2.05488419478943,0.18688905638983
-1.64161249152338,-0.337015563329758,-2.55179416941658,-2.41101451361945,-1.64238470530483,-0.550814726968206
-1.5563077941973,-0.033509411669436,-2.45808570191823,-2.29831151613731,-1.34678059937909,-0.272009510493647
-0.535007570454684,0.120091046556028,-2.46919559855415,-1.45170667042063,-1.92779042856488,-1.25331533805896
0.120289160773995,-0.412718562955554,-1.97258486051785,-0.811407426841003,-2.36379201024558,-2.2033073430201
-0.003710417367894,-0.587216335897253,-1.82348798271043,-0.909614169885315,-2.31298488263993,-2.20581332987458
-0.396409510081531,-0.130709423523256,-2.03529523016756,-1.37541407518178,-2.12538489319412,-2.64881703397077
-0.678713403679404,-0.360616937120056,-1.69418619280818,-1.54511488183677,-1.95698596965592,-2.76181432872506
-0.334108974861388,-0.85462833028291,-1.2777863445452,-1.33850526759673,-2.26909182295017,-2.58290937626999
0.440192169685678,-0.552409601284833,-1.90779375062488,-0.424209104373837,-2.43499341130021,-2.55840598149611
-0.481212735926438,-0.109110438068657,-2.25319752565948,-1.38881137752272,-2.0455850812472,-3.03521316238334
-0.915513119431128,-0.041007791389907,-2.47829262394272,-1.71171237761372,-1.77518247638222,-2.85920983936704
0.158489639814473,0.924893654305469,-2.17858319168373,-2.02311448324664,-2.43059023251904,-2.73050663685375
-0.418512727637834,1.03709222805218,-2.34329497010984,-1.75651325940996,-1.92768392292722,-3.08211090903098
-0.49211197235894,1.22709310495199,-2.15888598248515,-1.74560488916715,-1.75569057149853,-2.85350884371102
0.646392576959675,0.115385636222832,-0.827485284042893,-2.87281466021355,-2.37579171477477,-2.45761028605176
0.066287369500725,-0.301816691323006,-0.798884307127879,-2.07400887472594,-2.41479655935359,-2.32860734541481
-0.610010925248642,-0.264709765139794,-0.523085576133862,-1.72050540732505,-1.88028793629032,-2.5326137240695
-1.30371210387194,0.041491592052622,-0.540794557085588,-1.06870636368116,-1.50259177259256,-2.9046141144037
-1.93141255651279,1.2432998757954,-1.4475968510981,-0.331708656382382,-1.42165452038288,-3.13291309950803
-2.934013165796,1.96975654182829,-0.92717612133594,0.646092908919203,-2.34319888825114,-3.05590629856028
-1.00650777869155,1.95658500480757,-0.693483215532837,-1.13331519268108,-1.99677568427958,-0.372409643292333
-1.18070954988389,1.67298746827815,-0.285583724698515,-1.16271330452067,-2.19838767524493,-0.461711719133437
-0.098907834887826,1.88500871487435,-0.513191607132357,-1.26841527663396,-1.22398263927626,-0.728018619803259
0.839791876275826,1.69318135373489,-0.612891820563781,-0.462905167907825,0.200808151050913,-1.79021493882653
1.37229060334203,1.71190196139382,-0.813093436676429,-1.29251374035357,0.892002670910071,-1.26141066117659
1.89898941471771,1.78848355978999,-1.12479079588204,-1.57511542823289,1.36741008527165,-1.53811162243753
1.61658655213015,1.64707760359912,-1.82649287289667,-0.882110130175565,1.63369998368311,0.525593587284498
3.07159310433516,1.64438026078749,-1.51218370779514,-2.37021222217185,1.62810323805542,0.743992159663462
2.63218661245458,1.79596514054487,-0.424677924755421,-1.96750402769473,2.1038186354926,-0.903011305006726
3.07029244509754,1.83466732102699,-0.421682992050167,-2.1143151936459,2.42131608173183,-1.14091414834459
2.73818857977057,1.82377896610426,-1.1898912412371,-2.18321422952032,1.81891642926675,-1.79861067899868
2.68208709403724,1.78378721228211,-1.29159191210937,-2.14050763263819,1.72602518319127,-1.9287089694696
2.71029315329092,1.87219752337596,-1.40468862379312,-2.1645152808512,1.70822365739166,-1.94041632965132
2.68288611334925,1.90778120953495,-1.77669101639365,-2.09730428033225,1.51562069097273,-2.24451169185366
1.82568687463909,1.74228658387862,-1.93099158871199,-1.17250806278414,1.53292682655355,-2.56261350006589
1.06568810751042,1.91479453534042,-1.85418267421185,-0.354208539299485,1.35351461025481,-2.3313093512061
1.37859164248116,1.59758922538921,-2.0328933709535,-0.685811563893943,1.86480200825259,-1.49261101464695
1.19529077464578,1.08298847559282,-1.49608534694539,-0.470808051935226,2.01611047367387,-0.90631040106067
2.03889297354675,1.2698034885163,-0.42337763635319,-1.66101344704674,1.54869562675806,-1.50921353538953
2.27529094361521,0.996689265512969,-0.573491246891738,-1.71681509829204,1.68021743924947,-1.55611359149718
2.99778919519473,0.810980530440641,2.20751087232349E-05,-2.19881575539411,2.17220884115124,-0.708209830570702
2.97848583256995,1.28008150101264,-0.156092744976429,-2.11160639532518,2.28730687433453,-0.281408238009886
2.03398703550585,1.07958604252441,0.589418864357445,-1.76700875646001,1.67100111256644,-0.414712521597967
2.6045922467899,1.17050625199059,1.09581628859432,-1.43660578823479,2.17262006700262,0.183893062581329
2.95469148446774,1.04769988995721,1.00970758387559,-1.31880647502056,2.40340973680008,0.491988318950128
2.01058575578354,1.00808599292067,1.37711818619024,-1.81071410116876,1.79180765480002,0.399884893692192
2.88859180907767,1.23910151003825,0.530306093669165,-1.59590567922257,2.36422515454914,1.30369231864116
1.10978720719529,1.54819520214448,0.409009413526488,-2.58691445762289,1.01589756821816,0.646782537910341
0.954487029239854,0.667988888238272,2.19601807651976,-2.94441364576224,1.67230205084851,0.927090980957083
1.18199172287744,0.067187330695658,2.34511892336736,-2.65090701205405,1.1871135850261,0.574685778670369
0.880687690064272,-0.047813041824792,2.18000909434246,-2.98131203027689,0.797919805888404,0.700692059708545
0.79278550178403,-0.28451502837644,1.91290781054378,-3.09011285506288,0.179211683115782,0.67648812820082
0.555486954909411,-0.463813912883614,1.51070848055105,-2.65841150627489,-0.577786491252928,0.193582881192765
-0.08801094096007,-0.780214174693987,1.44520864058462,-2.16951351406862,-1.18247903974503,0.048188755597953
0.29119047051413,-1.13731757009839,1.68182010046515,-2.60611378684595,-1.07358737619873,0.357092035357876
0.329591318480093,-1.34611449701738,1.79311518367146,-2.67690911825218,-1.12338091521887,0.457290392092097
0.032487933958735,-1.59231439914932,1.6677081934307,-2.49350848345788,-1.44708537607942,0.640590460734379
-0.275010446326267,-1.61071580198446,1.94681753106233,-2.13541512890324,-1.30159633498276,0.423484374527891
-0.394413729083023,-1.84601455843239,1.94570971724281,-2.09690644371907,-1.4088777064267,0.669091414899739
-1.94361289277942,-1.87531575211731,0.991505921793835,-1.10450711337942,-0.684079031963224,1.80789194103923
-1.5400080379095,-1.65991238904029,0.994313736835532,-1.30411148012512,-1.17638907448048,1.53858803943717
-1.45321133563058,-1.37280790157784,0.469304889648907,-1.4770144405883,-1.2495791103031,1.78389059702786
-1.04500820391515,-1.52693279447858,0.417397778602715,-1.78721576170829,-1.6215890921784,2.09779109051386
-1.33471119370686,-1.78390338289363,0.604015553605715,-1.75850645312788,-1.34449474922449,2.39359148430776
0.640590443600071,-1.74450872790129,1.75201617901422,-3.01991486236678,-1.47859677439473,0.694886347726226
0.503986114227804,-1.79602494172924,2.04441842454071,-2.88040565821465,-1.22749970086843,0.652888522529445
0.772091325309785,-1.52511021441351,1.94200848386427,-3.12751046111789,-1.08469748089411,0.670692839997455
0.749186142564286,-1.5194138376775,1.98381482826822,-3.10291053003964,-1.03420178280782,0.662688064356896
0.341987272251165,-1.60181601574024,2.13772173727256,-2.66011279012245,-1.01158551142871,1.07438836350847
0.163987000655629,-1.56670140085807,1.77090860584699,-2.58990802447898,-1.35417934676736,1.17839187197831
0.135785325337163,-1.39601167045461,1.306407264507,-2.60091479705541,-1.61767645080627,0.690786806541023
0.102788468147837,-1.11010996738808,1.01860787191027,-2.56170975766403,-1.66158165743245,0.639887244236614
0.321292817956347,-1.43250326200828,0.803409065551212,-2.73191650740382,-2.09488652904707,0.922591411191101
0.016186901164962,-1.74361188759826,0.972714719560074,-2.47050653960074,-2.08286900361317,1.24099407763409
-0.261013003815761,-1.91600972375181,1.21361500700327,-2.28490910410081,-1.90530023265146,1.3644897455545
0.2432896129106,-1.97481232796404,1.08840812100802,-2.63011538542418,-2.22979739883135,1.82199136450607
0.787290503351759,-1.37090013829813,1.06730716136381,-3.12181476118707,-1.89127833703499,2.48189198039466
0.65298552352141,-1.18040791184884,1.3561171428182,-3.00410502736147,-1.45209322409167,2.41338937000073
0.661291314693416,-1.22771427136582,0.790803974082422,-3.02971438461217,-2.02417971225459,1.89138828789253
0.647585436919349,-0.488909078103857,0.051108423405433,-3.00420508070811,-2.11388901566262,1.80988769388851
0.252387424029606,-0.276208009653619,0.183614605590881,-2.63410639667557,-1.80358888220949,1.74898135151942
0.067886712779961,-0.447516578652714,-0.323997199297122,-2.36280868084884,-2.24328773679573,1.67198691419912
0.282690528044934,-0.236509163163366,-0.384692231582959,-2.59971054767611,-2.21408176213469,1.43878887782201
0.269386650521001,-0.032810103017884,-0.560192731182481,-2.57150594606253,-2.16979164795497,0.827090512023181
0.279790808244167,-1.13159865073182,0.25101432705511,-2.60971312371582,-2.3263980941863,1.07049267408682
0.668092700117859,-0.834410522368454,0.61701666177934,-3.03701529020348,-1.83408125913961,0.58128663149159
0.601787126638249,-1.2895172276203,1.42951689890502,-2.97990545653526,-1.41808229610842,0.599992224600769
0.489786261683419,-1.54231508932309,1.69701662880871,-2.87930553280413,-1.40559039388148,1.84079207995268
-0.498412987020484,-1.79403205765275,0.894200451942934,-2.09120732794147,-1.91240075372893,1.66428674127987
-0.619811951641535,-1.79310050446461,0.998014571229467,-2.02560658403238,-1.79449794439594,1.60179041830725
-0.554307147621164,-1.54370208711728,1.13901314087795,-2.04721328237356,-1.68869843117348,1.08598598578762
-1.10641071791768,-1.57131933687482,1.77051603436204,-1.39300548173256,-1.53108706019733,0.511585082130108
-0.87520730597326,-1.46950977747213,1.92031783230703,-1.55310688385036,-1.50279497080463,0.240091873634613
-0.389508612265051,-1.56721731733428,2.16411774408842,-1.91001168527616,-1.23138994769938,0.15879040722052
-0.97941383886433,-0.761209669901667,1.97040529203102,-1.41881155430732,-1.7874961426368,-0.522415187747273
-1.06570880942671,-0.523908721776103,1.9770167974966,-1.43571083025794,-1.94267608425409,-0.738209986549362
-1.28531417930142,-0.315009339035658,1.94510823692555,-1.49311484531628,-2.19749204806382,-0.890410440816615
-1.00780779661648,0.030692785921541,1.68150715823112,-1.51881383580629,-2.00278600193502,-1.0008132328788
-0.779508894735928,0.157492626546723,1.63561080176524,-1.49320650162788,-1.82158462539576,-1.08290789905942
-0.645107852628943,0.206291204422412,1.59350986964328,-1.46291301240736,-1.70708384035554,-1.09790883559999
-0.593507745555012,0.001887471362943,1.63341883660623,-1.47361659951456,-1.60078420604153,-0.962210267386076
-0.444110158185943,0.026490567392748,1.36970910559007,-1.5425166977161,-1.43938409922116,-0.761709907261736
-0.563213563618888,0.157591742401907,1.1930100488733,-1.52530744743847,-1.5817934613228,-0.717410620107576
-0.630012223332533,0.275795082610189,1.07900880970141,-1.50121250237149,-1.66749373308244,-0.714611708786895
-0.90090842356528,0.357102783464812,1.40851978785678,-1.51251338412917,-1.96409393681431,-1.04911109852929
-1.11021308777593,0.249087202006818,1.4272084155528,-1.51761198890181,-2.12649141949274,-0.962407236053133
-1.28261325174768,0.035086980914226,1.36000810439459,-1.38100754570878,-2.21829240951938,-0.679107076655615
-1.08720762771391,0.240994347453497,1.1314092382948,-1.4076146924887,-2.07558567047909,-0.68341760849161
-1.23671427006096,0.861086628620621,1.30742317968684,-1.81531789158998,-2.25899253481839,-0.825914007984834
-1.18180755231494,1.04740541728385,1.38961837407921,-1.907312392825,-2.18308465253629,-1.06361551340698
-0.964709837442025,0.67838762662444,1.59462050328042,-1.67190401596691,-2.05748435792273,-1.50331408160549
-0.897209712601718,0.432288823031947,1.76281862618585,-1.60360622175332,-1.97758542400123,-1.43280519667298
-0.96041405182027,0.123287362613517,1.99541934725953,-1.60351014769685,-1.97869112479334,-1.36311263502123
-0.731407952468956,-0.031214169466038,2.29071499844112,-1.46990856136779,-1.78448541087524,-1.47861153192985
-0.589410704754969,-0.040413449959886,2.1913068221635,-1.38990599547694,-1.65879228257832,-1.39931072612054
-0.499310966755028,0.194493770404872,2.33851498269897,-1.31690616026953,-1.71259257438382,-1.73951068560901
-0.058107453078239,0.3541922690497,2.11250823027913,-0.958809148763901,-1.47358580181894,-1.77601467873038
0.151691428230811,0.461192253536441,1.9751100390217,-0.767906680462101,-1.36498479978625,-1.82851287568798
0.2361916913525,0.420387708089892,2.19381584301445,-0.628107987272618,-1.46509196038745,-1.97310730761335
0.022988364917672,0.721593951732903,2.08280775213198,-0.852010538909256,-1.71799329617917,-2.01381005323768
-0.218710033719189,0.796196919349483,1.86430940300308,-1.11231319101165,-1.72979037771951,-1.86541012321888
0.002090696500355,0.884985684481974,1.73040912941972,-0.901405812958503,-1.64008552433616,-1.8644031619391
-1.30941095284389,0.779687812408997,1.70250932512425,-2.02261151914818,-2.20759455139061,-1.76090276939315
-1.044108984391,0.937183703041486,1.46770769371164,-1.77350867596547,-2.12388502681442,-1.62441059875646
-0.680307944456747,0.764387570096188,1.70801922673326,-1.51100665423505,-1.8971860091677,-1.66951366978427
-0.395511981958403,0.546287520206787,2.21631505769353,-1.28630834125276,-1.74468593214351,-0.724007032695142
-0.636413275430282,0.415287753990451,1.96100933721306,-1.49181679707189,-1.77659238611253,-0.373110140483551
-0.889812661509985,-0.125813499261786,2.32191934260512,-1.56861422854981,-1.8715921988542,-0.807515226698885
-0.759006161573209,-0.358612575504635,1.83570787580139,-1.48350924810342,-1.6801861315022,-0.803805254058087
-0.382208633150275,-0.377413687488096,2.06981564069418,-1.40670673324334,-1.3226871829372,-1.02621536902656
-0.130009428275486,-0.239408819322416,2.14002204266412,-1.2142036757533,-1.14918546895957,-1.28790697101044
-0.055907070078244,-0.435712932224471,2.06670853211904,-1.37730678597148,-0.962985452874991,-1.02511105794926
-0.31131387991907,-0.537314155570299,2.33571789985378,-1.31510874683198,-1.25029255108751,-1.13131437786752
-0.711112226995231,-0.631613615385512,2.34681344161082,-1.42511091183646,-1.61229091245599,-0.980511346397291
-1.27311348933371,-0.717313380459172,2.25560681504403,-1.41110564873801,-2.12050115754538,-0.749311723582802
-0.369509349033277,-0.58750825173403,1.62680897894097,-1.7403155053434,-1.27038460118927,-0.398607913150986
0.241688529275174,-0.041407523791925,1.49691036389889,-1.60050698272129,-0.670382671073641,-0.813214232327362
0.408190234476661,0.043492470507904,1.71602142855591,-0.967608367632232,-0.584182961147036,-1.45321173828683
0.49989242196119,0.095791716114181,1.73181694539872,-0.722908361253083,-0.56129362029361,-1.68280637818683
0.571090085288808,0.322692306661426,1.77221730964244,-0.375510949456294,-0.82248859046547,-1.98520941411332
0.677392466446646,0.397192838344583,1.8969190366005,-0.154206288362308,-1.02820104108904,-2.14470962230157
0.403287783267537,0.682065483910698,1.64000969767785,-0.52660984147887,-1.19439158327085,-1.88400871501933
0.542292367348264,0.939309911620053,1.49011083632304,-0.320412065545104,-1.31249131721124,-1.98431004649978
1.45579233403984,1.16798729568847,1.22540779272769,0.836193807344781,-1.50529271238509,-2.49131334355629
2.15038732508909,1.0965757888477,1.32192384949424,1.43609079701124,-1.89458988238793,-2.71971372460272
2.67308908934724,0.564287996745778,1.48192089357637,1.69499182213864,-2.1507914994076,-2.74681304490877
2.81529060173102,0.64639496444198,1.30260859030491,1.7062936016117,-2.27979297322535,-2.86331012696556
3.02009164681844,0.954887487402225,1.39461940875608,2.09289309422494,-2.33119134355194,-2.25820869160817
2.75128691412993,0.730388125771265,2.17711373277545,2.04908513459044,-1.98508520995887,-2.36541348737974
2.52938810727361,0.379587260190829,2.47301750764347,1.78438440412673,-1.92378495228549,-2.48351112848674
2.42948683741868,0.390193717798749,2.50691387441631,1.69639164266796,-1.89568465455093,-2.43761079808517
2.70139243460375,-0.022014038070191,2.35150994562226,1.77359340405003,-2.04719044983661,-2.47441329809164
2.78559198372723,-0.260813716509603,2.59411831372603,1.77979432757767,-2.09669105674129,-3.08901184341085
2.99739344113436,0.289495231161051,1.95400672365486,1.97439236459444,-2.30339177055513,-3.10121765008084
1.48418624528458,0.27558758368669,2.35441701374659,0.775685081290608,-1.50468493153782,-2.5456072576549
0.665091459539324,-0.300213954226812,2.26660749637379,-0.238616382032616,-0.607096402629224,-2.1240045386161
0.721792076965783,-0.758513942304586,2.25910618806343,-0.84071715830706,-0.091098460125096,-1.55840517659661
0.745589522706188,-0.488509297970551,1.5733089360596,0.100192114950416,0.477803619253839,-2.61281471626751
0.923993922112824,-0.032508637863825,0.696608819982046,-0.181513491736937,1.00530365797255,-2.51460815435731
1.25979138901375,-0.499414999850777,0.626805648719779,-0.439615941208528,1.54840525377397,-2.56651412627796
1.79509359507071,-1.1337273844791,0.48230307152742,-0.888616607225657,1.99090616306157,-3.00881444023853
2.01079236923045,-1.43039979784736,0.267906528525122,-1.15271411839278,2.10380697115912,-2.85081018247556
2.7408916123965,-1.31171091065376,0.871415774789002,-1.64341826238094,1.49090252215103,-2.95111641834584
2.51808753393349,-1.65089796080964,1.50791441579191,-1.49190487919734,1.49502659354658,-2.62390718241618
2.33568582993575,-1.43811003151239,1.56841624100334,-1.39060524278155,1.50340357639348,-2.37501021483423
2.28408690696493,-1.89891925523192,1.54940532797965,-1.22380732592737,1.55141205367068,-2.78531398247879
1.99038814136019,-1.93970980623202,1.55221377270718,-0.974313277108877,1.65320318374773,-2.77000715462511
2.09879133896933,-1.76160974090522,1.22170526479095,-1.05531654367856,1.72390348384254,-2.93331012507788
1.31338641103869,-1.90568832932817,1.06530209479399,-0.496105504648446,2.20362123972691,-2.16950868188766
1.1293872307894,-1.95842806404292,1.10201400540553,-0.333506946117425,2.25350704225569,-2.04041064859235
0.957789101767959,-1.6367113481902,0.859005757422302,-0.168706339957743,2.25422025784634,-1.9451112550116
1.04869022698015,-1.49200910643092,0.767112342793908,-0.251415134940955,2.21801558120615,-2.01820756157726
0.993187115052758,-1.47271040816268,0.890214090361527,-0.187106449917524,2.09952052756011,-1.96720920743968
1.08539203278626,-1.34190968554756,0.744107429346924,-0.27361424970319,2.12270003150234,-2.03421225987147
0.788986970622817,-1.32842862627019,0.547004122883055,-0.007906756228134,2.3087036518483,-1.86800559598821
1.21069186949832,-1.20170993525983,1.10341389064746,-0.353913613790826,1.66331577673446,-2.56851437657726
1.23948987795718,-1.41591679182917,1.18891239949934,-0.371413974745726,1.74680426092897,-2.58611289830263
1.30079131835681,-1.48931820321257,1.94821652822693,-0.530515046561127,1.09851773170716,-2.24620765106187
1.0758872550684,-1.61771540994018,1.97351518018876,-0.283408310693715,1.14740522379315,-2.36131058389247
2.66079208085319,-1.5721099804167,2.19461792691993,-1.8240144556035,1.61690127847405,-1.83660489035422
0.736287096123024,-1.96822230402578,1.28100349325665,0.071894642937096,2.15682146598428,-0.506307154580383
0.142791004345539,-1.92799665832567,1.36801482600304,0.56969357061013,1.96581462037071,-0.247507267003578
-0.618512613459097,-1.22121011968616,1.33900573776438,1.31909192574618,1.53361604300722,1.75889108359518
-1.06390886255926,-0.41260924117191,1.781218013292,1.71419539837543,1.94940817241563,2.46279137293769
-1.16151270803423,-0.334309624828181,1.66060828918833,1.74828646474334,2.04550495754909,2.50858844954858
-1.06370790649384,-0.239908100832847,1.34770927522728,1.76098985329214,1.93971623894097,2.67349140627611
-1.28271331610923,-0.478813932738683,1.43872236977975,1.9121863154105,2.03750161017553,2.85568896539124
-1.46801249837302,-0.478107937423245,1.50001840736474,2.02189430239053,2.19450597272516,2.87109055729171
-1.36350846554344,-0.272909357255876,1.19630999001582,1.99178838458678,2.11311990765173,2.90639027900395
-1.19500846243592,-0.062608432753033,1.02100861984204,1.88218605540211,2.03431920365788,2.83068769128597
-1.09371065587248,-0.105514403224806,0.717708419284544,1.86258803652209,1.86831834653217,3.09669238913271
-0.911808117239042,-0.550415076720688,1.37331912031621,1.67398592109836,1.72341375816655,2.90548452283291
0.090892270599332,0.076897949439684,1.50562283482307,1.71489354694251,0.876917663049102,2.14818649873886
-0.189113338078522,0.734504112220975,1.90791737588447,2.02699549842137,1.66050999210832,2.50639033562058
-3.11501058944869,-0.551913441890183,-0.315290117418935,-2.0246102507664,1.16931037394486,-2.6975128460776
-2.38080819064567,-0.578715149722037,0.625613341616927,-3.11901127794333,1.74431691788496,-2.03100734107546
-2.65311381797197,-1.68920564586874,0.91491267329177,-2.45330742304269,0.722316574058906,-2.24131575902334
0.738092237898627,-1.73081568984367,0.829203782363024,-3.01591432107421,-2.36439556213134,-2.34031871594262
-0.020210716508895,-1.66510747205551,1.50141543561372,-2.4133060161795,-1.62917981909027,-1.72261138778156
0.490491205809031,-1.18890998704989,1.40050708221348,-2.81591542457568,-1.40949512605682,-2.63900834119871
-1.50251239010628,-1.42560793360698,1.57721593902037,-0.989606968302419,-1.6074948556645,0.54188933995753
-1.75291021663393,-1.44122839457448,1.33060648652765,-0.761307315877959,-1.43779947431291,0.754888816158657
-1.45381154296051,-1.69871428155974,1.76291644274031,-1.05901112573273,-1.50068367228713,0.690687231884133
-0.682407536875888,-1.53431004978358,2.60162291962584,-1.51371326334189,-1.4458689744978,1.52169260371345
-0.499911900457253,-1.65159343275296,1.8382077804353,-1.98141482078336,-1.45709444816383,1.74289241798502
-1.68781196064574,-0.888209728746106,2.19801926997095,-1.15730835995566,-2.44299396073298,0.823687410869723
-1.20850822228115,-0.707408994104077,2.26391860337699,-1.47491218179539,-2.07248746333019,0.417287012947611
-0.624710723869852,0.547093855868525,2.34941688229256,-1.55711494618645,-1.83568342957974,0.396888493555804
-0.578007312713213,0.715894550944437,1.38560999781812,-1.48430767368105,-1.77948348674419,0.495592734306646
-1.30481401538114,0.408989528855522,1.00070768431465,-1.40350691627946,-2.29499573493854,0.534892331521187
-0.980909019163639,0.239287286590249,0.431606359394439,-1.32150857902816,-1.85169640007331,-0.090312674159671
-1.10461462186368,0.123086952979556,0.232008876693738,-1.21510493107808,-1.8105898314144,0.186789375102466
-0.618607900530662,0.064786766651736,0.541022496627169,-1.66391504167743,-1.64108935325017,0.543788020370905
-1.48621281434066,0.83048569651418,0.269207800008302,-1.03560361723033,-2.35039052070801,0.993295370990624
-1.74960875681034,0.519987326302178,0.206708288218483,-0.65880516768533,-2.26818732811222,1.38258950500818
-1.42710767316219,0.076386436174784,0.395815993546076,-0.941615707333599,-2.02639018491452,1.98879124339155
-1.95091251069685,0.365091523687405,-0.294292912743937,-0.359707821308876,-1.79749924096695,2.32369189125435
-2.26881359749028,-0.10391446514029,-0.124584537926075,-0.072004921488287,-1.53518473435484,2.32519506883916
-2.48011350572245,0.330392909162261,0.296315742237191,0.164494722036868,-2.30649190696596,2.47449332556225
-2.71530766456036,0.276288066038374,0.518417252399441,0.452492382295413,-2.4016784858119,2.08758707176377
-2.54280709063418,0.949594887988921,-0.276391936664161,0.215284285752448,-2.27948604406271,2.57738926789513
-1.78480853195941,0.818386638391273,-0.058178449697382,-0.585711928772826,-2.29899500186692,2.06088692087532
-1.13170790838419,1.70988808729988,-0.233790881002894,-1.25921022432591,-2.22578245437788,1.27598706560659
-0.494807908015481,1.32917274832871,-0.415192816458779,-1.47191256775228,-1.6250795522977,1.60179687166917
-0.332307701180082,1.60098928315291,0.313216181760333,-1.23850692652493,-1.72499290450205,2.6029910515367
-0.48141384864839,0.681288866483145,1.34101767176505,-1.3932141482368,-1.74790001754979,3.10648795090508
0.823892068037564,1.5883963594909,0.476207982125528,-0.023407363380926,-1.08538101447739,2.34498686802799
-0.668814406370297,1.96599285542517,-1.88619362344399,-1.47661368425837,-1.43570183428703,0.620785214173086
-1.06570895922952,1.88338977826859,-2.42279357437628,-1.34230704218592,-1.26077993308429,1.26769313308949
-2.92730909467659,1.2439854837315,-0.900482956043859,0.513993294500979,-1.84198992691403,-0.447612579123452
-2.98191413875015,0.481086298192498,-1.0981983240254,0.720991942699836,-1.15158755443829,0.15239250401091
-3.07921289042227,0.9323941615708,-1.31009547734095,0.704287314176435,-1.30788609653422,0.333393951013414
-2.99861144373353,0.824587768448524,-0.658683534136116,0.561784290590148,-1.76329254280033,0.633691402408303
-2.67830803204001,1.28518898105112,-0.639082012513893,0.294685864243373,-2.15238158602966,0.833092265431095
-2.62290830745911,1.43510213150129,-0.691089756719479,0.251485448635517,-2.2248812781157,0.860188434095281
-2.58291179259398,1.28798835775186,-0.798591605407685,0.196591186001912,-2.02168882194976,0.73278820913664
-2.86171002228049,1.68940448156348,-1.13179141720972,0.42449117058398,-1.99008098363811,0.947991583471744
-2.36740837754719,1.95659167571401,-1.10218017637696,0.00978458128137,-2.26839248774366,0.770789065544169
-2.75921444723695,1.57128913123075,-1.87379311057,0.379992268888967,-1.26128056939838,1.78279014973712
-2.44750770669148,1.54838781579047,-2.3419905621303,0.144589533042991,-0.706690198083338,1.83549084897849
-2.83671294210319,1.71469412194994,-2.50759862334221,0.738694000473025,-0.814079198991989,2.70959172763436
-3.12551410719094,1.72289341498055,-1.45778321340224,0.656484909391545,-1.74428588841722,2.70138503808994
-3.06470795233623,0.38838752272213,-1.45208457401961,1.09499408870471,-0.992082857673149,2.17448506105954
-3.03951266431421,0.489792088572183,-1.83819893270676,1.35709046837953,-0.815983965144574,1.22898268536472
-3.12411296248554,0.064885514792421,-1.93909772369421,1.87909303416585,-1.0517908049972,1.19878676103851
-3.12060827578051,-0.186315444260392,-1.5168862741391,1.75408451371215,-0.998687850877628,0.133685339593851
-3.0220092990419,-0.865427076959229,-0.538086455152114,1.64128262503719,-0.953482843718051,-0.786208971113701
-2.77430768905106,-1.3195287242164,-0.560197584169389,2.26359149489446,-0.984485959197549,1.03599148947819
-3.05261357555118,0.140190386235155,-0.610393463372097,0.770287109092811,-1.33089803198799,0.191085750939955
-2.50960827330896,-0.133015858346508,-0.67069991818029,0.253984100231338,-0.855091199944924,0.359690231962114
-2.3902068190277,-0.674104087198927,-0.516285327448399,0.165788668786753,-0.313892990861864,0.520991732305814
-2.16110811473603,0.118290104674808,-1.16399766405489,-0.421414244246219,-0.589384789419357,0.945392879202422
-2.36521348548113,0.589992450479451,-1.93429537637793,0.06978835482796,-0.150194007314698,0.615287544624511
-2.13910730144528,-0.265214946512784,-1.66498575727131,0.492894879301585,0.637703850056467,0.374986748388946
-1.9600111823559,-0.327921303215667,-2.26019708022347,0.465788224440607,1.3842089202119,0.702891315821786
-1.41190851332542,0.232990746736947,-2.53179631826762,1.03619498723469,1.36130655147059,0.165085389840553
-1.23670696304332,-0.036814626048374,-1.98388499892191,1.29429202976106,1.42770657736677,-0.204215475811412
-0.851410769575083,-0.065312902213109,-2.03148883227816,1.477894140953,1.7781066397427,-0.191308426577194
-0.687311659597998,-0.171513147593892,-2.05868914978647,1.59029145399948,1.92730356422661,-0.039108902917072
-0.687310489263534,0.110491346910958,-2.2032942950912,1.54058498526268,1.88421950327111,-0.226309494538833
-1.22920901556638,0.259790457197983,-1.87978479858138,1.44728540689218,1.29291610654358,-0.738213898067214
-1.41521202577797,-0.233817920410337,-2.45549567788959,0.9298871194571,1.62441352431724,-1.31990692794115
-1.09641191925867,-0.721716888438069,-2.15748478108355,1.28659480241303,1.8498204163463,-1.77711239848399
-1.83701158158025,-0.803926055981401,-2.50989273636409,0.530285192872512,2.06460713325424,-2.13291438300537
-2.0762107419854,-0.70230963618678,-2.10798415233263,0.236385418881525,1.63771722174736,-1.6425089455476
-2.00700670862744,0.136390566145587,-2.0316816784306,0.644896259095268,0.5681197466804,-3.01381137984627
-1.47151140050491,-0.751613580088231,-2.26829553723671,0.923692958902212,1.81751444140039,-2.92020504745023
0.16769131429329,-0.54830979794471,-2.04788327691583,2.4021920675856,2.26870667729415,-1.369906537373
-0.299712778457384,-0.432910790780671,-1.45318564808948,1.65898851875369,2.28602109532592,-0.448709791089592
-0.108209211872206,-0.962706818177287,-1.11398603606831,1.87358867966682,2.45141080489633,-0.09701042807372
-0.863212625162121,-0.651710272474467,-1.45889386080802,1.49668714394139,1.8756149468225,-0.068007527095051
-1.09770917103308,-0.579210112254641,-1.57699675878206,1.36849249870271,1.68521388835703,0.019388579955036
-1.02951076238704,-0.590612329831343,-1.28418345308684,1.42519333091997,1.69921965538773,-0.336014727790715
-0.933912221128646,-0.965896194931631,-1.26278494384523,1.45999560118831,1.88770442380727,0.169791300036601
-0.252308006509783,-0.747910360965719,-2.21399365660256,2.19059483198188,1.97793382476876,0.826691004050007
0.237290923820774,-0.897016687518147,-1.83248533488924,2.60209225963593,2.21430758399813,0.719986740868764
0.367291601115365,-0.795509853161343,-1.8601894423729,2.70778623237185,2.28280796546331,0.69728996712332
-0.1851108189972,-0.642111680746022,-1.8935974869532,2.11568734058419,2.19980079990454,0.418587605636803
0.025193087793229,-0.069207850208755,-1.94799663486482,1.94448737917405,2.45910862209293,0.388984546222174
-0.030613749334112,0.435692605580137,-2.0977944480734,1.54188578861208,2.41901771649474,-0.191815735358165
0.14119146692847,1.00569354319569,-2.28308926705493,1.10528881877868,2.42542197393206,-0.182004002317243
-0.434713751878951,0.59038728543715,-2.01418630796543,1.4788935504087,1.97841442027549,0.778992245645642
-0.559412583108278,0.374087355716488,-2.57139673981308,1.61749328357992,1.91999988758925,1.09559055044421
-0.44431176780284,0.575791097153225,-2.17918521789137,1.5155867815643,1.95752377689405,1.62828914775023
-0.023508080804401,0.386686546129436,-1.76778567545139,1.36368258010268,2.33500613088832,1.91459225577207
0.10259240851704,0.222986914997201,-1.55118381504363,1.2731896120178,2.45181104992014,1.79208740374792
-0.041113556335886,0.290590988791564,-1.49428501529033,1.2616854910787,2.2949219445704,1.67668694068781
-0.064913378115326,0.359190414882155,-1.4776840924444,1.23028452485023,2.24332314019347,1.58139073115112
-0.342212413393007,0.429091976942984,-1.32478585570293,1.33719447197275,1.96572215238244,1.39848933821358
0.041092284336679,-0.105015341033523,-1.15718117736885,1.23398647689063,2.41870430716722,1.70339118930734
0.027087319375197,-0.35251495193852,-0.979883832701269,1.27099164119188,2.44490911321382,1.80109071031311
-0.188312694923613,-0.304311702918572,-1.41989513629823,1.63178729306583,2.31361426446513,1.78308633486223
-2.55861340897566,-0.851122484987825,-1.28368762918807,-0.337113765478618,0.967993605939122,1.19618806457142
-2.89691217822424,-0.184009293512609,-1.82449503840374,-0.880614301548117,0.931800959157049,1.55828995884059
-2.69601058291412,-0.26451518793265,-2.25329496406586,-0.404507737709217,1.29420553424199,1.1022861119317
-2.10100809288317,0.284291070572778,-2.52659146640179,0.34749137863929,0.952013788955604,0.579584572469555
-1.35270815098127,-0.341316018337222,-1.97898541865796,1.16319064198051,1.47601671225304,0.809792777239223
-1.70411156605982,-0.202108859733254,-2.07099016082438,0.854985963469974,1.15931903825629,1.49169210339638
-1.95961301896699,-1.18919054274836,-1.02588582927746,0.580788820104827,1.22212137018741,0.678485195251567
-1.5874086861492,-1.24852701343015,-1.21079779440531,0.917391386610718,1.61400030021952,0.682595656437537
-0.253508376436866,-1.29381559752413,-0.227685317887778,1.3458945698456,2.31962105759331,1.56749532197899
-2.35431304178361,-1.84831310045883,0.48541611126583,0.03908654952882,0.228400676246087,0.970384087421605
-2.30430839055089,-1.97850586084778,1.29291405455715,-0.132812387117591,-0.620780907342261,0.967086409476463
-2.94271191336296,-1.86840664620214,1.71551471366231,0.757095005394454,-1.30679471283371,0.612486255459573
-2.45910964574548,-1.95211741059853,2.55701671854633,0.116287678012366,-1.9873870593964,0.85429110312968
-2.61461220436169,-1.65531031135056,2.35460971020112,0.315886111916335,-2.10287531470617,0.944587297865501
-2.34950809164348,-1.21851142204029,2.14140884218988,-0.00971416303693,-2.40878776053221,0.684087495822064
-2.56551028827665,-1.36731609722544,1.85810888106079,0.253294707693657,-1.98909039226248,0.781891604157276
-2.22320879214518,-1.06831031001517,1.72050596076322,-0.169714576030072,-2.19698665890675,0.523687334026922
-2.76091280072,-0.96580970877523,1.3329085636067,0.476592001632339,-1.92989328968992,0.745591911228791
-3.07781266214449,-1.19902164827992,1.43181476230794,0.835287608911881,-1.72429434545901,0.782691547602975
